!!!system-decoration: \{(s1,s2)\}s3,s4\
!!!OTL: A_FINE_ROMANCE
**kern	**kern	**kern	**kern	**mxhm
*part3	*part2	*part1	*part1	*part1
*staff4	*staff3	*staff2	*staff1	*
*I'Contrabass'	*I'Drumset'	*'IPiano'	*	*
*I'Cb.	*I'D. Set	*I'Pno.	*	*
*clefF4	*clefX	*clefF4	*clefG2	*
*k[b-e-a-]	*k[]	*k[b-e-a-]	*k[b-e-a-]	*
*C: 	*C:	*C:	*C:	*C:
*M4/4	*M4/4	*M4/4	*M4/4	*
*MM140	*MM140	*MM140	*MM140	*
*SSSwing	*SSSwing	*SSSwing	*SSSwing	*
=1	=1	=1	=1	=1
*	*^	*^	*	*
*	*head:regular	*head:x	*	*	*	*
!	!	!	!	!	!LO:TX:a:t=[quarter]=140.0	!
!	!	!	!	!	!LO:TX:a:t=Swing	!
6CC	16Rf\	16Ree/	4r	1ryy	4r	C 6
.	16re	16ree	.	.	.	.
.	.	.	.	.	.	.
.	8re	8ree	.	.	.	.
12r	.	.	.	.	.	.
.	.	.	.	.	.	.
4GG	4re	16Ree/	4r	.	4r	.
.	.	16ree	.	.	.	.
.	.	.	.	.	.	.
.	.	8ree	.	.	.	.
.	.	.	.	.	.	.
.	.	.	.	.	.	.
4GG	4re	16Ree/	4r	.	4r	.
.	.	16ree	.	.	.	.
.	.	.	.	.	.	.
.	.	8ree	.	.	.	.
.	.	.	.	.	.	.
.	.	.	.	.	.	.
4AAA	4re	16Ree/	4r	.	4r	.
.	.	16ree	.	.	.	.
.	.	.	.	.	.	.
.	.	8ree	.	.	.	.
.	.	.	.	.	.	.
.	.	.	.	.	.	.
=2	=2	=2	=2	=2	=2	=2
*	*head:regular	*head:x	*	*	*	*
4EEE	16Rf\	16Ree/	4r	1ryy	4r	C+ 8
.	16re	16ree	.	.	.	.
.	.	.	.	.	.	.
.	8re	8ree	.	.	.	.
.	.	.	.	.	.	.
.	.	.	.	.	.	.
4CC#	4re	16Ree/	4r	.	4r	.
.	.	16ree	.	.	.	.
.	.	.	.	.	.	.
.	.	8ree	.	.	.	.
.	.	.	.	.	.	.
.	.	.	.	.	.	.
4CC#	4re	16Ree/	6E A#	.	6c# g	.
.	.	16ree	.	.	.	.
.	.	.	.	.	.	.
.	.	8ree	.	.	.	.
.	.	.	12r	.	12r	.
.	.	.	.	.	.	.
4AAA#	4re	16Ree/	4E A#	.	4c# g	.
.	.	16ree	.	.	.	.
.	.	.	.	.	.	.
.	.	8ree	.	.	.	.
.	.	.	.	.	.	.
.	.	.	.	.	.	.
=3	=3	=3	=3	=3	=3	=3
*	*head:regular	*head:x	*	*	*	*
4AAA	16Rcc\	4ree	4r	1ryy	4r	D j
.	16re	.	.	.	.	.
.	.	.	.	.	.	.
.	8re	.	.	.	.	.
.	.	.	.	.	.	.
.	.	.	.	.	.	.
6DD	4re	16Ree/	4r	.	4r	.
.	.	16ree	.	.	.	.
.	.	.	.	.	.	.
.	.	8ree	.	.	.	.
12r	.	.	.	.	.	.
.	.	.	.	.	.	.
4DD	4re	16Ree/	4F B	.	4d a dd	.
.	.	16ree	.	.	.	.
.	.	.	.	.	.	.
.	.	8ree	.	.	.	.
.	.	.	.	.	.	.
.	.	.	.	.	.	.
4AAA	4re	16Ree/	4r	.	4r	.
.	.	16ree	.	.	.	.
.	.	.	.	.	.	.
.	.	8ree	.	.	.	.
.	.	.	.	.	.	.
.	.	.	.	.	.	.
=4	=4	=4	=4	=4	=4	=4
*	*head:regular	*head:x	*	*	*	*
4FF#	4re	16Ree/	4r	1ryy	4r	D+ 8
.	.	16ree	.	.	.	.
.	.	.	.	.	.	.
.	.	8ree	.	.	.	.
.	.	.	.	.	.	.
.	.	.	.	.	.	.
4AA	4re	16Ree/	12C F# A	.	12d#	.
.	.	16ree	.	.	.	.
.	.	.	12r	.	12r	.
.	.	8ree	.	.	.	.
.	.	.	12r	.	12r	.
.	.	.	.	.	.	.
4DD#	4re	16Ree/	6F#	.	6d# a cc aa	.
.	.	16ree	.	.	.	.
.	.	.	.	.	.	.
.	.	8ree	.	.	.	.
.	.	.	12r	.	12r	.
.	.	.	.	.	.	.
4CC	4re	16Ree/	4F#	.	4c d# a	.
.	.	16ree	.	.	.	.
.	.	.	.	.	.	.
.	.	8ree	.	.	.	.
.	.	.	.	.	.	.
.	.	.	.	.	.	.
=5	=5	=5	=5	=5	=5	=5
*	*head:regular	*head:x	*	*	*	*
6BBB	4re	12Ree/	6D G B	1ryy	6e	E b
.	.	.	.	.	.	.
.	.	12ree	.	.	.	.
.	.	.	.	.	.	.
12r	.	12ree	12r	.	12r	.
.	.	.	.	.	.	.
4FFF	4re	16Ree/	4r	.	4r	.
.	.	16ree	.	.	.	.
.	.	.	.	.	.	.
.	.	8ree	.	.	.	.
.	.	.	.	.	.	.
.	.	.	.	.	.	.
4EEE	4re	12Ree/	4r	.	4r	.
.	.	.	.	.	.	.
.	.	12ree	.	.	.	.
.	.	.	.	.	.	.
.	.	12ree	.	.	.	.
.	.	.	.	.	.	.
4BBB	12Rf\	16Ree/	4r	.	4r	.
.	.	16ree	.	.	.	.
.	12re	.	.	.	.	.
.	.	8ree	.	.	.	.
.	12re	.	.	.	.	.
.	.	.	.	.	.	.
=6	=6	=6	=6	=6	=6	=6
*	*head:regular	*head:x	*	*	*	*
4CC	4re	12Ree/	4r	1ryy	4r	A b
.	.	.	.	.	.	.
.	.	12ree	.	.	.	.
.	.	.	.	.	.	.
.	.	12ree	.	.	.	.
.	.	.	.	.	.	.
4DD#	4re	12Ree/	4r	.	4r	.
.	.	.	.	.	.	.
.	.	12ree	.	.	.	.
.	.	.	.	.	.	.
.	.	12ree	.	.	.	.
.	.	.	.	.	.	.
4EE	4re	12Ree/	4r	.	6c g a ee	.
.	.	.	.	.	.	.
.	.	12ree	.	.	.	.
.	.	.	.	.	.	.
.	.	12ree	.	.	12r	.
.	.	.	.	.	.	.
4CC	4re	12Ree/	4r	.	4r	.
.	.	.	.	.	.	.
.	.	12ree	.	.	.	.
.	.	.	.	.	.	.
.	.	12ree	.	.	.	.
.	.	.	.	.	.	.
=7	=7	=7	=7	=7	=7	=7
*	*head:regular	*head:x	*	*	*	*
4D	4re	12Ree/	4r	1ryy	4r	D b
.	.	.	.	.	.	.
.	.	12ree	.	.	.	.
.	.	.	.	.	.	.
.	.	12ree	.	.	.	.
.	.	.	.	.	.	.
6AA	4re	12Ree/	4r	.	4r	.
.	.	.	.	.	.	.
.	.	12ree	.	.	.	.
.	.	.	.	.	.	.
12r	.	12ree	.	.	.	.
.	.	.	.	.	.	.
4AA	4re	12Ree/	4r	.	4r	.
.	.	.	.	.	.	.
.	.	12ree	.	.	.	.
.	.	.	.	.	.	.
.	.	12ree	.	.	.	.
.	.	.	.	.	.	.
4DD	4re	12Ree/	4r	.	4r	.
.	.	.	.	.	.	.
.	.	12ree	.	.	.	.
.	.	.	.	.	.	.
.	.	12ree	.	.	.	.
.	.	.	.	.	.	.
=8	=8	=8	=8	=8	=8	=8
*	*head:regular	*head:x	*	*	*	*
4DD	4re	12Ree/	6F B	1ryy	6g dd gg	G 7
.	.	.	.	.	.	.
.	.	12ree	.	.	.	.
.	.	.	.	.	.	.
.	.	12ree	12r	.	12r	.
.	.	.	.	.	.	.
4GG	4re	16Ree/	12F B	.	12g dd gg	.
.	.	16ree	.	.	.	.
.	.	.	12r	.	12r	.
.	.	8ree	.	.	.	.
.	.	.	12r	.	12r	.
.	.	.	.	.	.	.
8GGG	4re	4ree	4F B	.	4g dd gg	.
.	.	.	.	.	.	.
.	.	.	.	.	.	.
8r	.	.	.	.	.	.
.	.	.	.	.	.	.
.	.	.	.	.	.	.
4r	16Rf\	16Ree/	4r	.	4r	.
.	16re	16ree	.	.	.	.
.	.	.	.	.	.	.
.	8re	8ree	.	.	.	.
.	.	.	.	.	.	.
.	.	.	.	.	.	.
=9	=9	=9	=9	=9	=9	=9
*	*head:regular	*head:x	*	*	*	*
4CC	4re	4ree	4r	1ryy	4r	C 6
.	.	.	.	.	.	.
.	.	.	.	.	.	.
.	.	.	.	.	.	.
.	.	.	.	.	.	.
.	.	.	.	.	.	.
4FFF	4re	16Ree/	4r	.	4r	.
.	.	16ree	.	.	.	.
.	.	.	.	.	.	.
.	.	8ree	.	.	.	.
.	.	.	.	.	.	.
.	.	.	.	.	.	.
4EEE	12Rf\	4ree	4r	.	4r	.
.	.	.	.	.	.	.
.	12re	.	.	.	.	.
.	.	.	.	.	.	.
.	12re	.	.	.	.	.
.	.	.	.	.	.	.
4GGG	4re	16Ree/	4r	.	4r	.
.	.	16ree	.	.	.	.
.	.	.	.	.	.	.
.	.	8ree	.	.	.	.
.	.	.	.	.	.	.
.	.	.	.	.	.	.
=10	=10	=10	=10	=10	=10	=10
*	*head:regular	*head:x	*	*	*	*
4DD#	4re	4ree	6C F# A	1ryy	6d#	E 8
.	.	.	.	.	.	.
.	.	.	.	.	.	.
.	.	.	.	.	.	.
.	.	.	12r	.	12r	.
.	.	.	.	.	.	.
4FF#	4re	16Ree/	4r	.	4r	.
.	.	16ree	.	.	.	.
.	.	.	.	.	.	.
.	.	8ree	.	.	.	.
.	.	.	.	.	.	.
.	.	.	.	.	.	.
4FF#	4re	4ree	4r	.	4r	.
.	.	.	.	.	.	.
.	.	.	.	.	.	.
.	.	.	.	.	.	.
.	.	.	.	.	.	.
.	.	.	.	.	.	.
4CC	4re	16Ree/	4r	.	4r	.
.	.	16ree	.	.	.	.
.	.	.	.	.	.	.
.	.	8ree	.	.	.	.
.	.	.	.	.	.	.
.	.	.	.	.	.	.
=11	=11	=11	=11	=11	=11	=11
*	*head:regular	*head:x	*	*	*	*
4AAA	4re	4ree	4r	1ryy	4r	D b
.	.	.	.	.	.	.
.	.	.	.	.	.	.
.	.	.	.	.	.	.
.	.	.	.	.	.	.
.	.	.	.	.	.	.
4CC	4re	16Ree/	4r	.	4r	.
.	.	16ree	.	.	.	.
.	.	.	.	.	.	.
.	.	8ree	.	.	.	.
.	.	.	.	.	.	.
.	.	.	.	.	.	.
4DD	4re	4ree	4r	.	4r	.
.	.	.	.	.	.	.
.	.	.	.	.	.	.
.	.	.	.	.	.	.
.	.	.	.	.	.	.
.	.	.	.	.	.	.
4AAA	4re	16Ree/	4r	.	4r	.
.	.	16ree	.	.	.	.
.	.	.	.	.	.	.
.	.	8ree	.	.	.	.
.	.	.	.	.	.	.
.	.	.	.	.	.	.
=12	=12	=12	=12	=12	=12	=12
*	*head:regular	*head:x	*	*	*	*
4GGG	4re	4ree	6F B	1ryy	6d g	G 7
.	.	.	.	.	.	.
.	.	.	.	.	.	.
.	.	.	.	.	.	.
.	.	.	12r	.	12r	.
.	.	.	.	.	.	.
4AAA#	4re	16Ree/	4r	.	4r	.
.	.	16ree	.	.	.	.
.	.	.	.	.	.	.
.	.	8ree	.	.	.	.
.	.	.	.	.	.	.
.	.	.	.	.	.	.
4BBB	12Rf\	4ree	4r	.	4r	.
.	.	.	.	.	.	.
.	12re	.	.	.	.	.
.	.	.	.	.	.	.
.	12re	.	.	.	.	.
.	.	.	.	.	.	.
4GGG	4re	16Ree/	6F B	.	6g dd gg	.
.	.	16ree	.	.	.	.
.	.	.	.	.	.	.
.	.	8ree	.	.	.	.
.	.	.	12r	.	12r	.
.	.	.	.	.	.	.
=13	=13	=13	=13	=13	=13	=13
*	*head:regular	*head:x	*	*	*	*
4GG	12Rf\	4ree	12D G B	1ryy	12e	E b
.	.	.	.	.	.	.
.	12re	.	12r	.	12r	.
.	.	.	.	.	.	.
.	12re	.	12r	.	12r	.
.	.	.	.	.	.	.
8.BB	4re	16Ree/	4r	.	4r	.
.	.	16ree	.	.	.	.
.	.	.	.	.	.	.
.	.	8ree	.	.	.	.
.	.	.	.	.	.	.
16r	.	.	.	.	.	.
6BBB	4re	4ree	4r	.	4r	.
.	.	.	.	.	.	.
.	.	.	.	.	.	.
.	.	.	.	.	.	.
12r	.	.	.	.	.	.
.	.	.	.	.	.	.
4GGG	4re	16Ree/	4r	.	4r	.
.	.	16ree	.	.	.	.
.	.	.	.	.	.	.
.	.	8ree	.	.	.	.
.	.	.	.	.	.	.
.	.	.	.	.	.	.
=14	=14	=14	=14	=14	=14	=14
*	*head:regular	*head:x	*	*	*	*
4CC#	12Rf\	4ree	4r	1ryy	4r	A 7
.	.	.	.	.	.	.
.	12re	.	.	.	.	.
.	.	.	.	.	.	.
.	12re	.	.	.	.	.
.	.	.	.	.	.	.
4AAA	4re	16Ree/	4r	.	4r	.
.	.	16ree	.	.	.	.
.	.	.	.	.	.	.
.	.	8ree	.	.	.	.
.	.	.	.	.	.	.
.	.	.	.	.	.	.
4AAA	4re	4ree	6C# G A	.	6e	.
.	.	.	.	.	.	.
.	.	.	.	.	.	.
.	.	.	.	.	.	.
.	.	.	12r	.	12r	.
.	.	.	.	.	.	.
8.DD	4re	16Ree/	4r	.	4r	.
.	.	16ree	.	.	.	.
.	.	.	.	.	.	.
.	.	8ree	.	.	.	.
.	.	.	.	.	.	.
16r	.	.	.	.	.	.
=15	=15	=15	=15	=15	=15	=15
*	*head:regular	*head:x	*	*	*	*
8DD	4re	4ree	4r	1ryy	4r	D 7
.	.	.	.	.	.	.
.	.	.	.	.	.	.
8r	.	.	.	.	.	.
.	.	.	.	.	.	.
.	.	.	.	.	.	.
4GG#	4re	16Ree/	4r	.	4r	.
.	.	16ree	.	.	.	.
.	.	.	.	.	.	.
.	.	8ree	.	.	.	.
.	.	.	.	.	.	.
.	.	.	.	.	.	.
4AA	4re	4ree	4r	.	4r	.
.	.	.	.	.	.	.
.	.	.	.	.	.	.
.	.	.	.	.	.	.
.	.	.	.	.	.	.
.	.	.	.	.	.	.
4FF#	4re	16Ree/	4r	.	4r	.
.	.	16ree	.	.	.	.
.	.	.	.	.	.	.
.	.	8ree	.	.	.	.
.	.	.	.	.	.	.
.	.	.	.	.	.	.
=16	=16	=16	=16	=16	=16	=16
*	*head:regular	*head:x	*	*	*	*
4BB	4re	4ree	6F B	1ryy	6g dd gg	G 7
.	.	.	.	.	.	.
.	.	.	.	.	.	.
.	.	.	.	.	.	.
.	.	.	12r	.	12r	.
.	.	.	.	.	.	.
4GG	4re	16Ree/	4F B	.	4g dd gg	.
.	.	16ree	.	.	.	.
.	.	.	.	.	.	.
.	.	8ree	.	.	.	.
.	.	.	.	.	.	.
.	.	.	.	.	.	.
8GG	4re	4ree	4F B	.	4d g	.
.	.	.	.	.	.	.
.	.	.	.	.	.	.
8r	.	.	.	.	.	.
.	.	.	.	.	.	.
.	.	.	.	.	.	.
8D	4re	16Ree/	4r	.	4r	.
.	.	16ree	.	.	.	.
.	.	.	.	.	.	.
8r	.	8ree	.	.	.	.
.	.	.	.	.	.	.
.	.	.	.	.	.	.
=17	=17	=17	=17	=17	=17	=17
*	*head:regular	*head:x	*	*	*	*
4CC	4re	4ree	4r	1ryy	4r	C 6
.	.	.	.	.	.	.
.	.	.	.	.	.	.
.	.	.	.	.	.	.
.	.	.	.	.	.	.
.	.	.	.	.	.	.
4GGG#	4re	16Ree/	4r	.	4r	.
.	.	16ree	.	.	.	.
.	.	.	.	.	.	.
.	.	8ree	.	.	.	.
.	.	.	.	.	.	.
.	.	.	.	.	.	.
4GGG	12Rf\	12Ree/	6E	.	6c g a cc	.
.	.	.	.	.	.	.
.	12re	12ree	.	.	.	.
.	.	.	.	.	.	.
.	12re	12ree	12r	.	12r	.
.	.	.	.	.	.	.
6CC	4re	16Ree/	4r	.	4r	.
.	.	16ree	.	.	.	.
.	.	.	.	.	.	.
.	.	8ree	.	.	.	.
12r	.	.	.	.	.	.
.	.	.	.	.	.	.
=18	=18	=18	=18	=18	=18	=18
*	*head:regular	*head:x	*	*	*	*
4CC#	12Rf\	12Ree/	4r	1ryy	4r	C+ 8
.	.	.	.	.	.	.
.	12re	12ree	.	.	.	.
.	.	.	.	.	.	.
.	12re	12ree	.	.	.	.
.	.	.	.	.	.	.
4GGG	4re	12Ree/	4E A#	.	4c# g	.
.	.	.	.	.	.	.
.	.	12ree	.	.	.	.
.	.	.	.	.	.	.
.	.	12ree	.	.	.	.
.	.	.	.	.	.	.
4GGG	12Rf\	12Ree/	4r	.	4r	.
.	.	.	.	.	.	.
.	12re	12ree	.	.	.	.
.	.	.	.	.	.	.
.	12re	12ree	.	.	.	.
.	.	.	.	.	.	.
8AAA#	4re	12Ree/	4r	.	4r	.
.	.	.	.	.	.	.
.	.	12ree	.	.	.	.
8r	.	.	.	.	.	.
.	.	12ree	.	.	.	.
.	.	.	.	.	.	.
=19	=19	=19	=19	=19	=19	=19
*	*head:regular	*head:x	*	*	*	*
8.DD	12Rf\	12Ree/	4F B	1ryy	4d a	D j
.	.	.	.	.	.	.
.	12re	12ree	.	.	.	.
.	.	.	.	.	.	.
.	12re	12ree	.	.	.	.
16r	.	.	.	.	.	.
4AAA	4re	12Ree/	4r	.	4r	.
.	.	.	.	.	.	.
.	.	12ree	.	.	.	.
.	.	.	.	.	.	.
.	.	12ree	.	.	.	.
.	.	.	.	.	.	.
4FF	12Rf\	12Ree/	4r	.	4r	.
.	.	.	.	.	.	.
.	12re	12ree	.	.	.	.
.	.	.	.	.	.	.
.	12re	12ree	.	.	.	.
.	.	.	.	.	.	.
4AA	4re	12Ree/	4r	.	4r	.
.	.	.	.	.	.	.
.	.	12ree	.	.	.	.
.	.	.	.	.	.	.
.	.	12ree	.	.	.	.
.	.	.	.	.	.	.
=20	=20	=20	=20	=20	=20	=20
*	*head:regular	*head:x	*	*	*	*
4FFF#	12Rf\	12Ree/	4r	1ryy	4r	D+ 8
.	.	.	.	.	.	.
.	12re	12ree	.	.	.	.
.	.	.	.	.	.	.
.	12re	12ree	.	.	.	.
.	.	.	.	.	.	.
4DD	4re	12Ree/	4r	.	4r	.
.	.	.	.	.	.	.
.	.	12ree	.	.	.	.
.	.	.	.	.	.	.
.	.	12ree	.	.	.	.
.	.	.	.	.	.	.
4DD#	4re	12Ree/	4r	.	4r	.
.	.	.	.	.	.	.
.	.	12ree	.	.	.	.
.	.	.	.	.	.	.
.	.	12ree	.	.	.	.
.	.	.	.	.	.	.
6CC	4re	12Ree/	12F#	.	12d# a cc aa	.
.	.	.	.	.	.	.
.	.	12ree	12r	.	12r	.
.	.	.	.	.	.	.
12r	.	12ree	12r	.	12r	.
.	.	.	.	.	.	.
=21	=21	=21	=21	=21	=21	=21
*	*head:regular	*head:x	*	*	*	*
4EEE	12Rf\	12Ree/	6G	1ryy	6d e b	E b
.	.	.	.	.	.	.
.	12re	12ree	.	.	.	.
.	.	.	.	.	.	.
.	12re	12ree	12r	.	12r	.
.	.	.	.	.	.	.
4BBB	4re	12Ree/	4r	.	4r	.
.	.	.	.	.	.	.
.	.	12ree	.	.	.	.
.	.	.	.	.	.	.
.	.	12ree	.	.	.	.
.	.	.	.	.	.	.
4BBB	4re	12Ree/	6G	.	6d e b	.
.	.	.	.	.	.	.
.	.	12ree	.	.	.	.
.	.	.	.	.	.	.
.	.	12ree	12r	.	12r	.
.	.	.	.	.	.	.
6EE	4re	12Ree/	4r	.	4r	.
.	.	.	.	.	.	.
.	.	12ree	.	.	.	.
.	.	.	.	.	.	.
12r	.	12ree	.	.	.	.
.	.	.	.	.	.	.
=22	=22	=22	=22	=22	=22	=22
*	*head:regular	*head:x	*	*	*	*
4EE	4re	12Ree/	4r	1ryy	4r	A b
.	.	.	.	.	.	.
.	.	12ree	.	.	.	.
.	.	.	.	.	.	.
.	.	12ree	.	.	.	.
.	.	.	.	.	.	.
4CC	4re	16Ree/	4G	.	4c e a	.
.	.	16ree	.	.	.	.
.	.	.	.	.	.	.
.	.	8ree	.	.	.	.
.	.	.	.	.	.	.
.	.	.	.	.	.	.
4CC	4re	12Ree/	4r	.	4r	.
.	.	.	.	.	.	.
.	.	12ree	.	.	.	.
.	.	.	.	.	.	.
.	.	12ree	.	.	.	.
.	.	.	.	.	.	.
8.AAA	4re	12Ree/	4r	.	4r	.
.	.	.	.	.	.	.
.	.	12ree	.	.	.	.
.	.	.	.	.	.	.
.	.	12ree	.	.	.	.
16r	.	.	.	.	.	.
=23	=23	=23	=23	=23	=23	=23
*	*head:regular	*head:x	*	*	*	*
8.DD	4re	12Ree/	4F	1ryy	4c a dd aa	D b
.	.	.	.	.	.	.
.	.	12ree	.	.	.	.
.	.	.	.	.	.	.
.	.	12ree	.	.	.	.
16r	.	.	.	.	.	.
4FF	4re	12Ree/	4r	.	4r	.
.	.	.	.	.	.	.
.	.	12ree	.	.	.	.
.	.	.	.	.	.	.
.	.	12ree	.	.	.	.
.	.	.	.	.	.	.
8FFF	4re	12Ree/	4r	.	4r	.
.	.	.	.	.	.	.
.	.	12ree	.	.	.	.
8r	.	.	.	.	.	.
.	.	12ree	.	.	.	.
.	.	.	.	.	.	.
4BBB	4re	16Ree/	4r	.	4r	.
.	.	16ree	.	.	.	.
.	.	.	.	.	.	.
.	.	8ree	.	.	.	.
.	.	.	.	.	.	.
.	.	.	.	.	.	.
=24	=24	=24	=24	=24	=24	=24
*	*head:regular	*head:x	*	*	*	*
4BBB	4re	12Ree/	4r	1ryy	4r	G 7
.	.	.	.	.	.	.
.	.	12ree	.	.	.	.
.	.	.	.	.	.	.
.	.	12ree	.	.	.	.
.	.	.	.	.	.	.
4FF	4re	12Ree/	4r	.	4r	.
.	.	.	.	.	.	.
.	.	12ree	.	.	.	.
.	.	.	.	.	.	.
.	.	12ree	.	.	.	.
.	.	.	.	.	.	.
8GG	4re	4ree	4F B	.	4d g	.
.	.	.	.	.	.	.
.	.	.	.	.	.	.
8r	.	.	.	.	.	.
.	.	.	.	.	.	.
.	.	.	.	.	.	.
8D	4re	16Ree/	4r	.	4r	.
.	.	16ree	.	.	.	.
.	.	.	.	.	.	.
8r	.	8ree	.	.	.	.
.	.	.	.	.	.	.
.	.	.	.	.	.	.
=25	=25	=25	=25	=25	=25	=25
*	*head:regular	*head:x	*	*	*	*
4C	4re	4ree	4r	1ryy	4r	C 6
.	.	.	.	.	.	.
.	.	.	.	.	.	.
.	.	.	.	.	.	.
.	.	.	.	.	.	.
.	.	.	.	.	.	.
4AA	4re	16Ree/	4r	.	4r	.
.	.	16ree	.	.	.	.
.	.	.	.	.	.	.
.	.	8ree	.	.	.	.
.	.	.	.	.	.	.
.	.	.	.	.	.	.
4GG	16Rf\	16Ree/	4E	.	4c a cc aa	.
.	16re	16ree	.	.	.	.
.	.	.	.	.	.	.
.	8re	8ree	.	.	.	.
.	.	.	.	.	.	.
.	.	.	.	.	.	.
4C	4re	16Ree/	4r	.	4r	.
.	.	16ree	.	.	.	.
.	.	.	.	.	.	.
.	.	8ree	.	.	.	.
.	.	.	.	.	.	.
.	.	.	.	.	.	.
=26	=26	=26	=26	=26	=26	=26
*	*head:regular	*head:x	*	*	*	*
4CC	16Rf\	16Ree/	4r	1ryy	4r	C 7
.	16re	16ree	.	.	.	.
.	.	.	.	.	.	.
.	8re	8ree	.	.	.	.
.	.	.	.	.	.	.
.	.	.	.	.	.	.
4AAA#	4re	16Ree/	4r	.	4r	.
.	.	16ree	.	.	.	.
.	.	.	.	.	.	.
.	.	8ree	.	.	.	.
.	.	.	.	.	.	.
.	.	.	.	.	.	.
4EEE	4re	16Ree/	6E A#	.	6c g	.
.	.	16ree	.	.	.	.
.	.	.	.	.	.	.
.	.	8ree	.	.	.	.
.	.	.	12r	.	12r	.
.	.	.	.	.	.	.
4CC	16Rf\	16Ree/	4r	.	4r	.
.	16re	16ree	.	.	.	.
.	.	.	.	.	.	.
.	8re	8ree	.	.	.	.
.	.	.	.	.	.	.
.	.	.	.	.	.	.
=27	=27	=27	=27	=27	=27	=27
*	*head:regular	*head:x	*	*	*	*
4CC	4re	16Ree/	4r	1ryy	4r	F c
.	.	16ree	.	.	.	.
.	.	.	.	.	.	.
.	.	8ree	.	.	.	.
.	.	.	.	.	.	.
.	.	.	.	.	.	.
4FF	16Rf\	16Ree/	4r	.	4r	.
.	16re	16ree	.	.	.	.
.	.	.	.	.	.	.
.	8re	8ree	.	.	.	.
.	.	.	.	.	.	.
.	.	.	.	.	.	.
4FFF	4re	16Ree/	4E A	.	4c f	.
.	.	16ree	.	.	.	.
.	.	.	.	.	.	.
.	.	8ree	.	.	.	.
.	.	.	.	.	.	.
.	.	.	.	.	.	.
4AAA	4re	16Ree/	4r	.	4r	.
.	.	16ree	.	.	.	.
.	.	.	.	.	.	.
.	.	8ree	.	.	.	.
.	.	.	.	.	.	.
.	.	.	.	.	.	.
=28	=28	=28	=28	=28	=28	=28
*	*head:regular	*head:x	*	*	*	*
4CC	4re	16Ree/	4E A	1ryy	4c f#	F+ W
.	.	16ree	.	.	.	.
.	.	.	.	.	.	.
.	.	8ree	.	.	.	.
.	.	.	.	.	.	.
.	.	.	.	.	.	.
4FF	4re	16Ree/	4r	.	4r	.
.	.	16ree	.	.	.	.
.	.	.	.	.	.	.
.	.	8ree	.	.	.	.
.	.	.	.	.	.	.
.	.	.	.	.	.	.
4FF#	4re	16Ree/	4D# A B	.	4f#	B 7
.	.	16ree	.	.	.	.
.	.	.	.	.	.	.
.	.	8ree	.	.	.	.
.	.	.	.	.	.	.
.	.	.	.	.	.	.
4BB	4re	16Ree/	4r	.	4r	.
.	.	16ree	.	.	.	.
.	.	.	.	.	.	.
.	.	8ree	.	.	.	.
.	.	.	.	.	.	.
.	.	.	.	.	.	.
=29	=29	=29	=29	=29	=29	=29
*	*head:regular	*head:x	*	*	*	*
4EEE	4re	12Ree/	6D G B	1ryy	6e	E b
.	.	.	.	.	.	.
.	.	12ree	.	.	.	.
.	.	.	.	.	.	.
.	.	12ree	12r	.	12r	.
.	.	.	.	.	.	.
4CC	4re	16Ree/	4r	.	4r	.
.	.	16ree	.	.	.	.
.	.	.	.	.	.	.
.	.	8ree	.	.	.	.
.	.	.	.	.	.	.
.	.	.	.	.	.	.
4CC#	12Rf\	12Ree/	4r	.	4r	A 7
.	.	.	.	.	.	.
.	12re	12ree	.	.	.	.
.	.	.	.	.	.	.
.	12re	12ree	.	.	.	.
.	.	.	.	.	.	.
4GGG	4re	12Ree/	4r	.	4r	.
.	.	.	.	.	.	.
.	.	12ree	.	.	.	.
.	.	.	.	.	.	.
.	.	12ree	.	.	.	.
.	.	.	.	.	.	.
=30	=30	=30	=30	=30	=30	=30
*	*head:regular	*head:x	*	*	*	*
4FFF	4re	12Ree/	4r	1ryy	4r	D b
.	.	.	.	.	.	.
.	.	12ree	.	.	.	.
.	.	.	.	.	.	.
.	.	12ree	.	.	.	.
.	.	.	.	.	.	.
4DD	4re	16Ree/	4r	.	4r	.
.	.	16ree	.	.	.	.
.	.	.	.	.	.	.
.	.	8ree	.	.	.	.
.	.	.	.	.	.	.
.	.	.	.	.	.	.
4DD	4re	12Ree/	6F B	.	6g dd gg	G 7
.	.	.	.	.	.	.
.	.	12ree	.	.	.	.
.	.	.	.	.	.	.
.	.	12ree	12r	.	12r	.
.	.	.	.	.	.	.
4GG	4re	16Ree/	4r	.	4r	.
.	.	16ree	.	.	.	.
.	.	.	.	.	.	.
.	.	8ree	.	.	.	.
.	.	.	.	.	.	.
.	.	.	.	.	.	.
=31	=31	=31	=31	=31	=31	=31
*	*head:regular	*head:x	*	*	*	*
4GG	4re	12Ree/	4r	1ryy	4r	C 6
.	.	.	.	.	.	.
.	.	12ree	.	.	.	.
.	.	.	.	.	.	.
.	.	12ree	.	.	.	.
.	.	.	.	.	.	.
4CC#	4re	16Ree/	4r	.	4r	.
.	.	16ree	.	.	.	.
.	.	.	.	.	.	.
.	.	8ree	.	.	.	.
.	.	.	.	.	.	.
.	.	.	.	.	.	.
4CC	4re	12Ree/	4r	.	4r	.
.	.	.	.	.	.	.
.	.	12ree	.	.	.	.
.	.	.	.	.	.	.
.	.	12ree	.	.	.	.
.	.	.	.	.	.	.
4GG	4re	12Ree/	4r	.	4r	.
.	.	.	.	.	.	.
.	.	12ree	.	.	.	.
.	.	.	.	.	.	.
.	.	12ree	.	.	.	.
.	.	.	.	.	.	.
=32	=32	=32	=32	=32	=32	=32
*	*head:regular	*head:x	*	*	*	*
4CC	4re	12Ree/	6E	1ryy	6c a cc aa	C 6
.	.	.	.	.	.	.
.	.	12ree	.	.	.	.
.	.	.	.	.	.	.
.	.	12ree	12r	.	12r	.
.	.	.	.	.	.	.
4GGG#	4re	12Ree/	12E	.	12c a cc aa	.
.	.	.	.	.	.	.
.	.	12ree	12r	.	12r	.
.	.	.	.	.	.	.
.	.	12ree	12r	.	12r	.
.	.	.	.	.	.	.
8GGG	4re	4ree	4C E A	.	4c	.
.	.	.	.	.	.	.
.	.	.	.	.	.	.
8r	.	.	.	.	.	.
.	.	.	.	.	.	.
.	.	.	.	.	.	.
8CC	16Rf\	16Ree/	4r	.	4r	.
.	16re	16ree	.	.	.	.
.	.	.	.	.	.	.
8r	8re	8ree	.	.	.	.
.	.	.	.	.	.	.
.	.	.	.	.	.	.
=33	=33	=33	=33	=33	=33	=33
*	*head:regular	*head:x	*	*	*	*
6CC	4re	4ree	4r	1ryy	4r	C 6
.	.	.	.	.	.	.
.	.	.	.	.	.	.
.	.	.	.	.	.	.
12r	.	.	.	.	.	.
.	.	.	.	.	.	.
4GG	4re	16Ree/	4r	.	4r	.
.	.	16ree	.	.	.	.
.	.	.	.	.	.	.
.	.	8ree	.	.	.	.
.	.	.	.	.	.	.
.	.	.	.	.	.	.
4GG	4re	16Ree/	4E	.	4c a cc aa	.
.	.	16ree	.	.	.	.
.	.	.	.	.	.	.
.	.	8ree	.	.	.	.
.	.	.	.	.	.	.
.	.	.	.	.	.	.
4EE	4re	16Ree/	4r	.	4r	.
.	.	16ree	.	.	.	.
.	.	.	.	.	.	.
.	.	8ree	.	.	.	.
.	.	.	.	.	.	.
.	.	.	.	.	.	.
=34	=34	=34	=34	=34	=34	=34
*	*head:regular	*head:x	*	*	*	*
4C#	4re	16Ree/	4E	1ryy	4c# g a# gg	C+ 8
.	.	16ree	.	.	.	.
.	.	.	.	.	.	.
.	.	8ree	.	.	.	.
.	.	.	.	.	.	.
.	.	.	.	.	.	.
4GG	4re	16Ree/	4r	.	4r	.
.	.	16ree	.	.	.	.
.	.	.	.	.	.	.
.	.	8ree	.	.	.	.
.	.	.	.	.	.	.
.	.	.	.	.	.	.
4GG	4re	16Ree/	4r	.	4r	.
.	.	16ree	.	.	.	.
.	.	.	.	.	.	.
.	.	8ree	.	.	.	.
.	.	.	.	.	.	.
.	.	.	.	.	.	.
4DD	4re	16Ree/	4r	.	4r	.
.	.	16ree	.	.	.	.
.	.	.	.	.	.	.
.	.	8ree	.	.	.	.
.	.	.	.	.	.	.
.	.	.	.	.	.	.
=35	=35	=35	=35	=35	=35	=35
*	*head:regular	*head:x	*	*	*	*
4DD	4re	16Ree/	4F B	1ryy	4d a dd	D j
.	.	16ree	.	.	.	.
.	.	.	.	.	.	.
.	.	8ree	.	.	.	.
.	.	.	.	.	.	.
.	.	.	.	.	.	.
6AA	4re	16Ree/	4r	.	4r	.
.	.	16ree	.	.	.	.
.	.	.	.	.	.	.
.	.	8ree	.	.	.	.
12r	.	.	.	.	.	.
.	.	.	.	.	.	.
4AAA	4re	16Ree/	4F B	.	4d a	.
.	.	16ree	.	.	.	.
.	.	.	.	.	.	.
.	.	8ree	.	.	.	.
.	.	.	.	.	.	.
.	.	.	.	.	.	.
4DD	4re	16Ree/	4F B	.	4d a dd	.
.	.	16ree	.	.	.	.
.	.	.	.	.	.	.
.	.	8ree	.	.	.	.
.	.	.	.	.	.	.
.	.	.	.	.	.	.
=36	=36	=36	=36	=36	=36	=36
*	*head:regular	*head:x	*	*	*	*
4DD#	4re	16Ree/	6F#	1ryy	6c d# a	D+ 8
.	.	16ree	.	.	.	.
.	.	.	.	.	.	.
.	.	8ree	.	.	.	.
.	.	.	12r	.	12r	.
.	.	.	.	.	.	.
4GGG	4re	16Ree/	4r	.	4r	.
.	.	16ree	.	.	.	.
.	.	.	.	.	.	.
.	.	8ree	.	.	.	.
.	.	.	.	.	.	.
.	.	.	.	.	.	.
4FFF#	4re	16Ree/	4r	.	4r	.
.	.	16ree	.	.	.	.
.	.	.	.	.	.	.
.	.	8ree	.	.	.	.
.	.	.	.	.	.	.
.	.	.	.	.	.	.
4AAA	4re	16Ree/	4r	.	4r	.
.	.	16ree	.	.	.	.
.	.	.	.	.	.	.
.	.	8ree	.	.	.	.
.	.	.	.	.	.	.
.	.	.	.	.	.	.
=37	=37	=37	=37	=37	=37	=37
*	*head:regular	*head:x	*	*	*	*
4BBB	12Rf\	12Ree/	4r	1ryy	4r	E b
.	.	.	.	.	.	.
.	12re	12ree	.	.	.	.
.	.	.	.	.	.	.
.	12re	12ree	.	.	.	.
.	.	.	.	.	.	.
4FF#	4re	12Ree/	4r	.	4r	.
.	.	.	.	.	.	.
.	.	12ree	.	.	.	.
.	.	.	.	.	.	.
.	.	12ree	.	.	.	.
.	.	.	.	.	.	.
4GG	12Rf\	12Ree/	4G	.	4d e b	.
.	.	.	.	.	.	.
.	12re	12ree	.	.	.	.
.	.	.	.	.	.	.
.	12re	12ree	.	.	.	.
.	.	.	.	.	.	.
6EE	4re	12Ree/	4r	.	4r	.
.	.	.	.	.	.	.
.	.	12ree	.	.	.	.
.	.	.	.	.	.	.
12r	.	12ree	.	.	.	.
.	.	.	.	.	.	.
=38	=38	=38	=38	=38	=38	=38
*	*head:regular	*head:x	*	*	*	*
4AAA	4re	12Ree/	4r	1ryy	4r	A b
.	.	.	.	.	.	.
.	.	12ree	.	.	.	.
.	.	.	.	.	.	.
.	.	12ree	.	.	.	.
.	.	.	.	.	.	.
4CC	4re	12Ree/	4r	.	4r	.
.	.	.	.	.	.	.
.	.	12ree	.	.	.	.
.	.	.	.	.	.	.
.	.	12ree	.	.	.	.
.	.	.	.	.	.	.
4CC	4re	12Ree/	6G	.	6c e a	.
.	.	.	.	.	.	.
.	.	12ree	.	.	.	.
.	.	.	.	.	.	.
.	.	12ree	12r	.	12r	.
.	.	.	.	.	.	.
8.AAA	4re	12Ree/	4r	.	4r	.
.	.	.	.	.	.	.
.	.	12ree	.	.	.	.
.	.	.	.	.	.	.
.	.	12ree	.	.	.	.
16r	.	.	.	.	.	.
=39	=39	=39	=39	=39	=39	=39
*	*head:regular	*head:x	*	*	*	*
8.FFF	4re	12Ree/	4r	1ryy	4r	D b
.	.	.	.	.	.	.
.	.	12ree	.	.	.	.
.	.	.	.	.	.	.
.	.	12ree	.	.	.	.
16r	.	.	.	.	.	.
4CC#	12Rf\	16Ree/	4r	.	4r	.
.	.	16ree	.	.	.	.
.	12re	.	.	.	.	.
.	.	8ree	.	.	.	.
.	12re	.	.	.	.	.
.	.	.	.	.	.	.
8DD	4re	12Ree/	4C F A	.	4d	.
.	.	.	.	.	.	.
.	.	12ree	.	.	.	.
8r	.	.	.	.	.	.
.	.	12ree	.	.	.	.
.	.	.	.	.	.	.
4FF	4re	12Ree/	4r	.	4r	.
.	.	.	.	.	.	.
.	.	12ree	.	.	.	.
.	.	.	.	.	.	.
.	.	12ree	.	.	.	.
.	.	.	.	.	.	.
=40	=40	=40	=40	=40	=40	=40
*	*head:regular	*head:x	*	*	*	*
4GG	4re	12Ree/	4r	1ryy	4r	G 7
.	.	.	.	.	.	.
.	.	12ree	.	.	.	.
.	.	.	.	.	.	.
.	.	12ree	.	.	.	.
.	.	.	.	.	.	.
4BB	12Rf\	16Ree/	4r	.	4r	.
.	.	16ree	.	.	.	.
.	12re	.	.	.	.	.
.	.	8ree	.	.	.	.
.	12re	.	.	.	.	.
.	.	.	.	.	.	.
8BBB	4re	16Ree/	4BB F G	.	4d	.
.	.	16ree	.	.	.	.
.	.	.	.	.	.	.
8r	.	8ree	.	.	.	.
.	.	.	.	.	.	.
.	.	.	.	.	.	.
8GGG	4re	16Ree/	4r	.	4r	.
.	.	16ree	.	.	.	.
.	.	.	.	.	.	.
8r	.	8ree	.	.	.	.
.	.	.	.	.	.	.
.	.	.	.	.	.	.
=41	=41	=41	=41	=41	=41	=41
*	*head:regular	*head:x	*	*	*	*
6CC	4re	4ree	4r	1ryy	4r	C 6
.	.	.	.	.	.	.
.	.	.	.	.	.	.
.	.	.	.	.	.	.
12r	.	.	.	.	.	.
.	.	.	.	.	.	.
8.AAA	4re	16Ree/	4r	.	4r	.
.	.	16ree	.	.	.	.
.	.	.	.	.	.	.
.	.	8ree	.	.	.	.
.	.	.	.	.	.	.
16r	.	.	.	.	.	.
4GGG	4re	4ree	4E	.	4c a cc aa	.
.	.	.	.	.	.	.
.	.	.	.	.	.	.
.	.	.	.	.	.	.
.	.	.	.	.	.	.
.	.	.	.	.	.	.
4DD	4re	16Ree/	4r	.	4r	.
.	.	16ree	.	.	.	.
.	.	.	.	.	.	.
.	.	8ree	.	.	.	.
.	.	.	.	.	.	.
.	.	.	.	.	.	.
=42	=42	=42	=42	=42	=42	=42
*	*head:regular	*head:x	*	*	*	*
8DD#	4re	4ree	4r	1ryy	4r	E 8
.	.	.	.	.	.	.
.	.	.	.	.	.	.
8r	.	.	.	.	.	.
.	.	.	.	.	.	.
.	.	.	.	.	.	.
4AAA	4re	16Ree/	4r	.	4r	.
.	.	16ree	.	.	.	.
.	.	.	.	.	.	.
.	.	8ree	.	.	.	.
.	.	.	.	.	.	.
.	.	.	.	.	.	.
4FF#	4re	4ree	4F#	.	4d# a cc aa	.
.	.	.	.	.	.	.
.	.	.	.	.	.	.
.	.	.	.	.	.	.
.	.	.	.	.	.	.
.	.	.	.	.	.	.
6DD#	4re	16Ree/	4r	.	4r	.
.	.	16ree	.	.	.	.
.	.	.	.	.	.	.
.	.	8ree	.	.	.	.
12r	.	.	.	.	.	.
.	.	.	.	.	.	.
=43	=43	=43	=43	=43	=43	=43
*	*head:regular	*head:x	*	*	*	*
4D	4re	4ree	4F	1ryy	4c d a	D b
.	.	.	.	.	.	.
.	.	.	.	.	.	.
.	.	.	.	.	.	.
.	.	.	.	.	.	.
.	.	.	.	.	.	.
4C	4re	16Ree/	4r	.	4r	.
.	.	16ree	.	.	.	.
.	.	.	.	.	.	.
.	.	8ree	.	.	.	.
.	.	.	.	.	.	.
.	.	.	.	.	.	.
4AA	4re	4ree	6F	.	6c d a	.
.	.	.	.	.	.	.
.	.	.	.	.	.	.
.	.	.	.	.	.	.
.	.	.	12r	.	12r	.
.	.	.	.	.	.	.
4DD	4re	16Ree/	4r	.	4r	.
.	.	16ree	.	.	.	.
.	.	.	.	.	.	.
.	.	8ree	.	.	.	.
.	.	.	.	.	.	.
.	.	.	.	.	.	.
=44	=44	=44	=44	=44	=44	=44
*	*head:regular	*head:x	*	*	*	*
4BBB	4re	4ree	6F B	1ryy	6g dd gg	G 7
.	.	.	.	.	.	.
.	.	.	.	.	.	.
.	.	.	.	.	.	.
.	.	.	12r	.	12r	.
.	.	.	.	.	.	.
4GGG	4re	16Ree/	4r	.	4r	.
.	.	16ree	.	.	.	.
.	.	.	.	.	.	.
.	.	8ree	.	.	.	.
.	.	.	.	.	.	.
.	.	.	.	.	.	.
4GGG	4re	4ree	4r	.	4r	.
.	.	.	.	.	.	.
.	.	.	.	.	.	.
.	.	.	.	.	.	.
.	.	.	.	.	.	.
.	.	.	.	.	.	.
4BBB	4re	16Ree/	4r	.	4r	.
.	.	16ree	.	.	.	.
.	.	.	.	.	.	.
.	.	8ree	.	.	.	.
.	.	.	.	.	.	.
.	.	.	.	.	.	.
=45	=45	=45	=45	=45	=45	=45
*	*head:regular	*head:x	*	*	*	*
4BBB	16Rf\	4ree	4r	1ryy	4r	E b
.	16re	.	.	.	.	.
.	.	.	.	.	.	.
.	8re	.	.	.	.	.
.	.	.	.	.	.	.
.	.	.	.	.	.	.
4GGG	4re	16Ree/	4r	.	4r	.
.	.	16ree	.	.	.	.
.	.	.	.	.	.	.
.	.	8ree	.	.	.	.
.	.	.	.	.	.	.
.	.	.	.	.	.	.
4GGG	4re	4ree	4r	.	4r	.
.	.	.	.	.	.	.
.	.	.	.	.	.	.
.	.	.	.	.	.	.
.	.	.	.	.	.	.
.	.	.	.	.	.	.
4CC	4re	16Ree/	4r	.	4r	.
.	.	16ree	.	.	.	.
.	.	.	.	.	.	.
.	.	8ree	.	.	.	.
.	.	.	.	.	.	.
.	.	.	.	.	.	.
=46	=46	=46	=46	=46	=46	=46
*	*head:regular	*head:x	*	*	*	*
4CC#	16Rf\	4ree	4r	1ryy	4r	A 7
.	16re	.	.	.	.	.
.	.	.	.	.	.	.
.	8re	.	.	.	.	.
.	.	.	.	.	.	.
.	.	.	.	.	.	.
4DD#	4re	16Ree/	4r	.	4r	.
.	.	16ree	.	.	.	.
.	.	.	.	.	.	.
.	.	8ree	.	.	.	.
.	.	.	.	.	.	.
.	.	.	.	.	.	.
4EE	4re	4ree	4r	.	4r	.
.	.	.	.	.	.	.
.	.	.	.	.	.	.
.	.	.	.	.	.	.
.	.	.	.	.	.	.
.	.	.	.	.	.	.
4AAA	16Rf\	16Ree/	4C# G A	.	4e	.
.	16re	16ree	.	.	.	.
.	.	.	.	.	.	.
.	8re	8ree	.	.	.	.
.	.	.	.	.	.	.
.	.	.	.	.	.	.
=47	=47	=47	=47	=47	=47	=47
*	*head:regular	*head:x	*	*	*	*
4FFF#	16Rf\	4ree	4r	1ryy	4r	D 7
.	16re	.	.	.	.	.
.	.	.	.	.	.	.
.	8re	.	.	.	.	.
.	.	.	.	.	.	.
.	.	.	.	.	.	.
4CC#	4re	16Ree/	4r	.	4r	.
.	.	16ree	.	.	.	.
.	.	.	.	.	.	.
.	.	8ree	.	.	.	.
.	.	.	.	.	.	.
.	.	.	.	.	.	.
4DD	4re	4ree	12F#	.	12c d a	.
.	.	.	.	.	.	.
.	.	.	12r	.	12r	.
.	.	.	.	.	.	.
.	.	.	12r	.	12r	.
.	.	.	.	.	.	.
4CC	4re	16Ree/	4r	.	4r	.
.	.	16ree	.	.	.	.
.	.	.	.	.	.	.
.	.	8ree	.	.	.	.
.	.	.	.	.	.	.
.	.	.	.	.	.	.
=48	=48	=48	=48	=48	=48	=48
*	*head:regular	*head:x	*	*	*	*
4GGG	4re	4ree	4r	1ryy	4r	G 7
.	.	.	.	.	.	.
.	.	.	.	.	.	.
.	.	.	.	.	.	.
.	.	.	.	.	.	.
.	.	.	.	.	.	.
4DD	4re	16Ree/	12F B	.	12d g	.
.	.	16ree	.	.	.	.
.	.	.	12r	.	12r	.
.	.	8ree	.	.	.	.
.	.	.	12r	.	12r	.
.	.	.	.	.	.	.
8DD	4re	4ree	4F B	.	4g dd gg	.
.	.	.	.	.	.	.
.	.	.	.	.	.	.
8r	.	.	.	.	.	.
.	.	.	.	.	.	.
.	.	.	.	.	.	.
8CC	4re	16Ree/	4r	.	4r	.
.	.	16ree	.	.	.	.
.	.	.	.	.	.	.
8r	.	8ree	.	.	.	.
.	.	.	.	.	.	.
.	.	.	.	.	.	.
=49	=49	=49	=49	=49	=49	=49
*	*head:regular	*head:x	*	*	*	*
6CC	4re	4ree	4r	1ryy	4r	C 6
.	.	.	.	.	.	.
.	.	.	.	.	.	.
.	.	.	.	.	.	.
12r	.	.	.	.	.	.
.	.	.	.	.	.	.
4r	4re	12Ree/	4r	.	4r	.
.	.	.	.	.	.	.
.	.	12ree	.	.	.	.
.	.	.	.	.	.	.
.	.	12ree	.	.	.	.
.	.	.	.	.	.	.
4CC	4re	12Ree/	4r	.	4r	.
.	.	.	.	.	.	.
.	.	12ree	.	.	.	.
.	.	.	.	.	.	.
.	.	12ree	.	.	.	.
.	.	.	.	.	.	.
4EE	4re	16Ree/	4r	.	4r	.
.	.	16ree	.	.	.	.
.	.	.	.	.	.	.
.	.	8ree	.	.	.	.
.	.	.	.	.	.	.
.	.	.	.	.	.	.
=50	=50	=50	=50	=50	=50	=50
*	*head:regular	*head:x	*	*	*	*
8CC#	4re	12Ree/	4r	1ryy	4r	C+ 8
.	.	.	.	.	.	.
.	.	12ree	.	.	.	.
8r	.	.	.	.	.	.
.	.	12ree	.	.	.	.
.	.	.	.	.	.	.
4FFF	4re	12Ree/	12E	.	12c# g a# gg	.
.	.	.	.	.	.	.
.	.	12ree	12r	.	12r	.
.	.	.	.	.	.	.
.	.	12ree	12r	.	12r	.
.	.	.	.	.	.	.
4EEE	4re	12Ree/	4E	.	4c# g a# gg	.
.	.	.	.	.	.	.
.	.	12ree	.	.	.	.
.	.	.	.	.	.	.
.	.	12ree	.	.	.	.
.	.	.	.	.	.	.
6AAA#	4re	12Ree/	4r	.	4r	.
.	.	.	.	.	.	.
.	.	12ree	.	.	.	.
.	.	.	.	.	.	.
12r	.	12ree	.	.	.	.
.	.	.	.	.	.	.
=51	=51	=51	=51	=51	=51	=51
*	*head:regular	*head:x	*	*	*	*
4DD	4re	12Ree/	4r	1ryy	4r	D j
.	.	.	.	.	.	.
.	.	12ree	.	.	.	.
.	.	.	.	.	.	.
.	.	12ree	.	.	.	.
.	.	.	.	.	.	.
4GG#	4re	12Ree/	4r	.	4r	.
.	.	.	.	.	.	.
.	.	12ree	.	.	.	.
.	.	.	.	.	.	.
.	.	12ree	.	.	.	.
.	.	.	.	.	.	.
4AA	4re	12Ree/	4r	.	4r	.
.	.	.	.	.	.	.
.	.	12ree	.	.	.	.
.	.	.	.	.	.	.
.	.	12ree	.	.	.	.
.	.	.	.	.	.	.
4D	4re	12Ree/	4r	.	4r	.
.	.	.	.	.	.	.
.	.	12ree	.	.	.	.
.	.	.	.	.	.	.
.	.	12ree	.	.	.	.
.	.	.	.	.	.	.
=52	=52	=52	=52	=52	=52	=52
*	*head:regular	*head:x	*	*	*	*
4D#	4re	12Ree/	4r	1ryy	4r	D+ 8
.	.	.	.	.	.	.
.	.	12ree	.	.	.	.
.	.	.	.	.	.	.
.	.	12ree	.	.	.	.
.	.	.	.	.	.	.
4C	4re	12Ree/	12F#	.	12d# a cc aa	.
.	.	.	.	.	.	.
.	.	12ree	12r	.	12r	.
.	.	.	.	.	.	.
.	.	12ree	12r	.	12r	.
.	.	.	.	.	.	.
4FF#	4re	12Ree/	4r	.	4r	.
.	.	.	.	.	.	.
.	.	12ree	.	.	.	.
.	.	.	.	.	.	.
.	.	12ree	.	.	.	.
.	.	.	.	.	.	.
4DD#	4re	16Ree/	4r	.	4r	.
.	.	16ree	.	.	.	.
.	.	.	.	.	.	.
.	.	8ree	.	.	.	.
.	.	.	.	.	.	.
.	.	.	.	.	.	.
=53	=53	=53	=53	=53	=53	=53
*	*head:regular	*head:x	*	*	*	*
4BBB	4re	16Ree/	4D G B	1ryy	4e	E b
.	.	16ree	.	.	.	.
.	.	.	.	.	.	.
.	.	8ree	.	.	.	.
.	.	.	.	.	.	.
.	.	.	.	.	.	.
4EE	4re	16Ree/	4r	.	4r	.
.	.	16ree	.	.	.	.
.	.	.	.	.	.	.
.	.	8ree	.	.	.	.
.	.	.	.	.	.	.
.	.	.	.	.	.	.
4EEE	16Rf\	16Ree/	4D G B	.	4e	.
.	16re	16ree	.	.	.	.
.	.	.	.	.	.	.
.	8re	8ree	.	.	.	.
.	.	.	.	.	.	.
.	.	.	.	.	.	.
6BBB	4re	16Ree/	4r	.	4r	.
.	.	16ree	.	.	.	.
.	.	.	.	.	.	.
.	.	8ree	.	.	.	.
12r	.	.	.	.	.	.
.	.	.	.	.	.	.
=54	=54	=54	=54	=54	=54	=54
*	*head:regular	*head:x	*	*	*	*
4CC	4re	16Ree/	4r	1ryy	4r	A b
.	.	16ree	.	.	.	.
.	.	.	.	.	.	.
.	.	8ree	.	.	.	.
.	.	.	.	.	.	.
.	.	.	.	.	.	.
4EE	4re	16Ree/	4r	.	4r	.
.	.	16ree	.	.	.	.
.	.	.	.	.	.	.
.	.	8ree	.	.	.	.
.	.	.	.	.	.	.
.	.	.	.	.	.	.
4AAA	4re	16Ree/	6G	.	6c e a	.
.	.	16ree	.	.	.	.
.	.	.	.	.	.	.
.	.	8ree	.	.	.	.
.	.	.	12r	.	12r	.
.	.	.	.	.	.	.
8CC	4re	16Ree/	4r	.	4r	.
.	.	16ree	.	.	.	.
.	.	.	.	.	.	.
8r	.	8ree	.	.	.	.
.	.	.	.	.	.	.
.	.	.	.	.	.	.
=55	=55	=55	=55	=55	=55	=55
*	*head:regular	*head:x	*	*	*	*
8.DD	4re	16Ree/	4r	1ryy	4r	D b
.	.	16ree	.	.	.	.
.	.	.	.	.	.	.
.	.	8ree	.	.	.	.
.	.	.	.	.	.	.
16r	.	.	.	.	.	.
4FF	4re	16Ree/	4r	.	4r	.
.	.	16ree	.	.	.	.
.	.	.	.	.	.	.
.	.	8ree	.	.	.	.
.	.	.	.	.	.	.
.	.	.	.	.	.	.
4FF	4re	16Ree/	4F	.	4c d a	.
.	.	16ree	.	.	.	.
.	.	.	.	.	.	.
.	.	8ree	.	.	.	.
.	.	.	.	.	.	.
.	.	.	.	.	.	.
4CC	4re	16Ree/	4r	.	4r	.
.	.	16ree	.	.	.	.
.	.	.	.	.	.	.
.	.	8ree	.	.	.	.
.	.	.	.	.	.	.
.	.	.	.	.	.	.
=56	=56	=56	=56	=56	=56	=56
*	*head:regular	*head:x	*	*	*	*
4GGG	4re	16Ree/	4F B	1ryy	4d g	G 7
.	.	16ree	.	.	.	.
.	.	.	.	.	.	.
.	.	8ree	.	.	.	.
.	.	.	.	.	.	.
.	.	.	.	.	.	.
4AAA#	16Rf\	16Ree/	4r	.	4r	.
.	16re	16ree	.	.	.	.
.	.	.	.	.	.	.
.	8re	8ree	.	.	.	.
.	.	.	.	.	.	.
.	.	.	.	.	.	.
8BBB	4re	4ree	4F B	.	4g dd gg	.
.	.	.	.	.	.	.
.	.	.	.	.	.	.
8r	.	.	.	.	.	.
.	.	.	.	.	.	.
.	.	.	.	.	.	.
8GGG	4re	4ree	4r	.	4r	.
.	.	.	.	.	.	.
.	.	.	.	.	.	.
8r	.	.	.	.	.	.
.	.	.	.	.	.	.
.	.	.	.	.	.	.
=57	=57	=57	=57	=57	=57	=57
*	*head:regular	*head:x	*	*	*	*
6CC	4re	4ree	4r	1ryy	4r	C 6
.	.	.	.	.	.	.
.	.	.	.	.	.	.
.	.	.	.	.	.	.
12r	.	.	.	.	.	.
.	.	.	.	.	.	.
8.BBB	4re	12Ree/	4r	.	4r	.
.	.	.	.	.	.	.
.	.	12ree	.	.	.	.
.	.	.	.	.	.	.
.	.	12ree	.	.	.	.
16r	.	.	.	.	.	.
4CC	4re	12Ree/	4r	.	4r	.
.	.	.	.	.	.	.
.	.	12ree	.	.	.	.
.	.	.	.	.	.	.
.	.	12ree	.	.	.	.
.	.	.	.	.	.	.
4EE	4re	12Ree/	4r	.	4r	.
.	.	.	.	.	.	.
.	.	12ree	.	.	.	.
.	.	.	.	.	.	.
.	.	12ree	.	.	.	.
.	.	.	.	.	.	.
=58	=58	=58	=58	=58	=58	=58
*	*head:regular	*head:x	*	*	*	*
8EE	4re	12Ree/	6E A#	1ryy	6c g	C 7
.	.	.	.	.	.	.
.	.	12ree	.	.	.	.
8r	.	.	.	.	.	.
.	.	12ree	12r	.	12r	.
.	.	.	.	.	.	.
4CC	4re	16Ree/	4r	.	4r	.
.	.	16ree	.	.	.	.
.	.	.	.	.	.	.
.	.	8ree	.	.	.	.
.	.	.	.	.	.	.
.	.	.	.	.	.	.
4CC	4re	12Ree/	4r	.	4r	.
.	.	.	.	.	.	.
.	.	12ree	.	.	.	.
.	.	.	.	.	.	.
.	.	12ree	.	.	.	.
.	.	.	.	.	.	.
6GGG	4re	12Ree/	4r	.	4r	.
.	.	.	.	.	.	.
.	.	12ree	.	.	.	.
.	.	.	.	.	.	.
12r	.	12ree	.	.	.	.
.	.	.	.	.	.	.
=59	=59	=59	=59	=59	=59	=59
*	*head:regular	*head:x	*	*	*	*
4CC	4re	12Ree/	4E A	1ryy	4c f	F c
.	.	.	.	.	.	.
.	.	12ree	.	.	.	.
.	.	.	.	.	.	.
.	.	12ree	.	.	.	.
.	.	.	.	.	.	.
4FFF#	4re	12Ree/	4r	.	4r	.
.	.	.	.	.	.	.
.	.	12ree	.	.	.	.
.	.	.	.	.	.	.
.	.	12ree	.	.	.	.
.	.	.	.	.	.	.
4FFF	4re	12Ree/	4r	.	4r	.
.	.	.	.	.	.	.
.	.	12ree	.	.	.	.
.	.	.	.	.	.	.
.	.	12ree	.	.	.	.
.	.	.	.	.	.	.
4CC	4re	16Ree/	4r	.	4r	.
.	.	16ree	.	.	.	.
.	.	.	.	.	.	.
.	.	8ree	.	.	.	.
.	.	.	.	.	.	.
.	.	.	.	.	.	.
=60	=60	=60	=60	=60	=60	=60
*	*head:regular	*head:x	*	*	*	*
4CC	4re	12Ree/	4r	1ryy	4r	F+ W
.	.	.	.	.	.	.
.	.	12ree	.	.	.	.
.	.	.	.	.	.	.
.	.	12ree	.	.	.	.
.	.	.	.	.	.	.
4EE	4re	12Ree/	4r	.	4r	.
.	.	.	.	.	.	.
.	.	12ree	.	.	.	.
.	.	.	.	.	.	.
.	.	12ree	.	.	.	.
.	.	.	.	.	.	.
4FF#	4re	12Ree/	4r	.	4r	B 7
.	.	.	.	.	.	.
.	.	12ree	.	.	.	.
.	.	.	.	.	.	.
.	.	12ree	.	.	.	.
.	.	.	.	.	.	.
4AA	4re	12Ree/	4r	.	4r	.
.	.	.	.	.	.	.
.	.	12ree	.	.	.	.
.	.	.	.	.	.	.
.	.	12ree	.	.	.	.
.	.	.	.	.	.	.
=61	=61	=61	=61	=61	=61	=61
*	*head:regular	*head:x	*	*	*	*
4BB	16Rf\	16Ree/	4G	1ryy	4d b ee bb	E b
.	16re	16ree	.	.	.	.
.	.	.	.	.	.	.
.	8re	8ree	.	.	.	.
.	.	.	.	.	.	.
.	.	.	.	.	.	.
4FF	4re	16Ree/	4r	.	4r	.
.	.	16ree	.	.	.	.
.	.	.	.	.	.	.
.	.	8ree	.	.	.	.
.	.	.	.	.	.	.
.	.	.	.	.	.	.
4EE	4re	16Ree/	4G	.	4c# a ee aa	A 7
.	.	16ree	.	.	.	.
.	.	.	.	.	.	.
.	.	8ree	.	.	.	.
.	.	.	.	.	.	.
.	.	.	.	.	.	.
4AA	4re	16Ree/	4r	.	4r	.
.	.	16ree	.	.	.	.
.	.	.	.	.	.	.
.	.	8ree	.	.	.	.
.	.	.	.	.	.	.
.	.	.	.	.	.	.
=62	=62	=62	=62	=62	=62	=62
*	*head:regular	*head:x	*	*	*	*
4DD	4re	16Ree/	4F	1ryy	4c a dd aa	D b
.	.	16ree	.	.	.	.
.	.	.	.	.	.	.
.	.	8ree	.	.	.	.
.	.	.	.	.	.	.
.	.	.	.	.	.	.
4GGG#	4re	16Ree/	4r	.	4r	.
.	.	16ree	.	.	.	.
.	.	.	.	.	.	.
.	.	8ree	.	.	.	.
.	.	.	.	.	.	.
.	.	.	.	.	.	.
4GGG	4re	16Ree/	4F B	.	4g dd gg	G 7
.	.	16ree	.	.	.	.
.	.	.	.	.	.	.
.	.	8ree	.	.	.	.
.	.	.	.	.	.	.
.	.	.	.	.	.	.
4DD	4re	16Ree/	4r	.	4r	.
.	.	16ree	.	.	.	.
.	.	.	.	.	.	.
.	.	8ree	.	.	.	.
.	.	.	.	.	.	.
.	.	.	.	.	.	.
=63	=63	=63	=63	=63	=63	=63
*	*head:regular	*head:x	*	*	*	*
4CC	4re	16Ree/	4E	1ryy	4c a cc aa	C 6
.	.	16ree	.	.	.	.
.	.	.	.	.	.	.
.	.	8ree	.	.	.	.
.	.	.	.	.	.	.
.	.	.	.	.	.	.
4GG	4re	16Ree/	4r	.	4r	.
.	.	16ree	.	.	.	.
.	.	.	.	.	.	.
.	.	8ree	.	.	.	.
.	.	.	.	.	.	.
.	.	.	.	.	.	.
4EEE	4re	4ree	4E	.	4c g a cc	.
.	.	.	.	.	.	.
.	.	.	.	.	.	.
.	.	.	.	.	.	.
.	.	.	.	.	.	.
.	.	.	.	.	.	.
4GGG	4re	16Ree/	4r	.	4r	.
.	.	16ree	.	.	.	.
.	.	.	.	.	.	.
.	.	8ree	.	.	.	.
.	.	.	.	.	.	.
.	.	.	.	.	.	.
=64	=64	=64	=64	=64	=64	=64
*	*head:regular	*head:x	*	*	*	*
4CC	4re	16Ree/	4C E A	1ryy	4c	C 6
.	.	16ree	.	.	.	.
.	.	.	.	.	.	.
.	.	8ree	.	.	.	.
.	.	.	.	.	.	.
.	.	.	.	.	.	.
4GG	4re	16Ree/	4r	.	4r	.
.	.	16ree	.	.	.	.
.	.	.	.	.	.	.
.	.	8ree	.	.	.	.
.	.	.	.	.	.	.
.	.	.	.	.	.	.
8GG	4re	16Ree/	4C E A	.	4c	.
.	.	16ree	.	.	.	.
.	.	.	.	.	.	.
8r	.	8ree	.	.	.	.
.	.	.	.	.	.	.
.	.	.	.	.	.	.
4r	16Rf\	16Ree/	4r	.	4r	.
.	16re	16ree	.	.	.	.
.	.	.	.	.	.	.
.	8re	8ree	.	.	.	.
.	.	.	.	.	.	.
.	.	.	.	.	.	.
=65	=65	=65	=65	=65	=65	=65
*	*head:regular	*head:x	*	*	*	*
6CC	4re	4ree	4r	1ryy	4r	C 6
.	.	.	.	.	.	.
.	.	.	.	.	.	.
.	.	.	.	.	.	.
12r	.	.	.	.	.	.
.	.	.	.	.	.	.
8.EE	4re	12Ree/	4r	.	4r	.
.	.	.	.	.	.	.
.	.	12ree	.	.	.	.
.	.	.	.	.	.	.
.	.	12ree	.	.	.	.
16r	.	.	.	.	.	.
4CC	4re	12Ree/	4r	.	4r	.
.	.	.	.	.	.	.
.	.	12ree	.	.	.	.
.	.	.	.	.	.	.
.	.	12ree	.	.	.	.
.	.	.	.	.	.	.
4AAA	4re	12Ree/	4r	.	4r	.
.	.	.	.	.	.	.
.	.	12ree	.	.	.	.
.	.	.	.	.	.	.
.	.	12ree	.	.	.	.
.	.	.	.	.	.	.
=66	=66	=66	=66	=66	=66	=66
*	*head:regular	*head:x	*	*	*	*
8GGG	12Rf\	12Ree/	4E	1ryy	4c# g a# gg	C+ 8
.	.	.	.	.	.	.
.	12re	12ree	.	.	.	.
8r	.	.	.	.	.	.
.	12re	12ree	.	.	.	.
.	.	.	.	.	.	.
4CC#	4re	12Ree/	4r	.	4r	.
.	.	.	.	.	.	.
.	.	12ree	.	.	.	.
.	.	.	.	.	.	.
.	.	12ree	.	.	.	.
.	.	.	.	.	.	.
4CC#	4re	12Ree/	4r	.	4r	.
.	.	.	.	.	.	.
.	.	12ree	.	.	.	.
.	.	.	.	.	.	.
.	.	12ree	.	.	.	.
.	.	.	.	.	.	.
6GGG	4re	16Ree/	4r	.	4r	.
.	.	16ree	.	.	.	.
.	.	.	.	.	.	.
.	.	8ree	.	.	.	.
12r	.	.	.	.	.	.
.	.	.	.	.	.	.
=67	=67	=67	=67	=67	=67	=67
*	*head:regular	*head:x	*	*	*	*
4AA	4re	12Ree/	8.F B	1ryy	8.d a	D j
.	.	.	.	.	.	.
.	.	12ree	.	.	.	.
.	.	.	.	.	.	.
.	.	12ree	.	.	.	.
.	.	.	16r	.	16r	.
4DD	4re	16Ree/	8.F B	.	8.d a dd	.
.	.	16ree	.	.	.	.
.	.	.	.	.	.	.
.	.	8ree	.	.	.	.
.	.	.	.	.	.	.
.	.	.	16r	.	16r	.
4DD	4re	12Ree/	8.F B	.	8.d a dd	.
.	.	.	.	.	.	.
.	.	12ree	.	.	.	.
.	.	.	.	.	.	.
.	.	12ree	.	.	.	.
.	.	.	16r	.	16r	.
4AA	4re	12Ree/	8.F B	.	8.d a	.
.	.	.	.	.	.	.
.	.	12ree	.	.	.	.
.	.	.	.	.	.	.
.	.	12ree	.	.	.	.
.	.	.	16r	.	16r	.
=68	=68	=68	=68	=68	=68	=68
*	*head:regular	*head:x	*	*	*	*
4DD#	4re	12Ree/	6C F# A	1ryy	6d#	D+ 8
.	.	.	.	.	.	.
.	.	12ree	.	.	.	.
.	.	.	.	.	.	.
.	.	12ree	12r	.	12r	.
.	.	.	.	.	.	.
4FF#	4re	12Ree/	4r	.	4r	.
.	.	.	.	.	.	.
.	.	12ree	.	.	.	.
.	.	.	.	.	.	.
.	.	12ree	.	.	.	.
.	.	.	.	.	.	.
4FFF#	4re	12Ree/	4r	.	4r	.
.	.	.	.	.	.	.
.	.	12ree	.	.	.	.
.	.	.	.	.	.	.
.	.	12ree	.	.	.	.
.	.	.	.	.	.	.
4DD#	4re	12Ree/	4r	.	4r	.
.	.	.	.	.	.	.
.	.	12ree	.	.	.	.
.	.	.	.	.	.	.
.	.	12ree	.	.	.	.
.	.	.	.	.	.	.
=69	=69	=69	=69	=69	=69	=69
*	*head:regular	*head:x	*	*	*	*
4BBB	12Rf\	12Ree/	4D G B	1ryy	4e	E b
.	.	.	.	.	.	.
.	12re	12ree	.	.	.	.
.	.	.	.	.	.	.
.	12re	12ree	.	.	.	.
.	.	.	.	.	.	.
4EEE	4re	16Ree/	4r	.	4r	.
.	.	16ree	.	.	.	.
.	.	.	.	.	.	.
.	.	8ree	.	.	.	.
.	.	.	.	.	.	.
.	.	.	.	.	.	.
6GG	12Rf\	12Ree/	4D G B	.	4e	.
.	.	.	.	.	.	.
.	12re	12ree	.	.	.	.
.	.	.	.	.	.	.
12r	12re	12ree	.	.	.	.
.	.	.	.	.	.	.
4BB	4re	16Ree/	4r	.	4r	.
.	.	16ree	.	.	.	.
.	.	.	.	.	.	.
.	.	8ree	.	.	.	.
.	.	.	.	.	.	.
.	.	.	.	.	.	.
=70	=70	=70	=70	=70	=70	=70
*	*head:regular	*head:x	*	*	*	*
4C	12Rf\	12Ree/	4r	1ryy	4r	A b
.	.	.	.	.	.	.
.	12re	12ree	.	.	.	.
.	.	.	.	.	.	.
.	12re	12ree	.	.	.	.
.	.	.	.	.	.	.
4E	4re	12Ree/	4r	.	4r	.
.	.	.	.	.	.	.
.	.	12ree	.	.	.	.
.	.	.	.	.	.	.
.	.	12ree	.	.	.	.
.	.	.	.	.	.	.
4EE	12Rf\	12Ree/	6C G	.	6e a ee	.
.	.	.	.	.	.	.
.	12re	12ree	.	.	.	.
.	.	.	.	.	.	.
.	12re	12ree	12r	.	12r	.
.	.	.	.	.	.	.
8.AAA	4re	12Ree/	4r	.	4r	.
.	.	.	.	.	.	.
.	.	12ree	.	.	.	.
.	.	.	.	.	.	.
.	.	12ree	.	.	.	.
16r	.	.	.	.	.	.
=71	=71	=71	=71	=71	=71	=71
*	*head:regular	*head:x	*	*	*	*
8DD	12Rf\	12Ree/	4r	1ryy	4r	D b
.	.	.	.	.	.	.
.	12re	12ree	.	.	.	.
8r	.	.	.	.	.	.
.	12re	12ree	.	.	.	.
.	.	.	.	.	.	.
8.AA	4re	12Ree/	4r	.	4r	.
.	.	.	.	.	.	.
.	.	12ree	.	.	.	.
.	.	.	.	.	.	.
.	.	12ree	.	.	.	.
16r	.	.	.	.	.	.
4FFF	12Rf\	12Ree/	4C F A	.	4d	.
.	.	.	.	.	.	.
.	12re	12ree	.	.	.	.
.	.	.	.	.	.	.
.	12re	12ree	.	.	.	.
.	.	.	.	.	.	.
4CC#	4re	12Ree/	4r	.	4r	.
.	.	.	.	.	.	.
.	.	12ree	.	.	.	.
.	.	.	.	.	.	.
.	.	12ree	.	.	.	.
.	.	.	.	.	.	.
=72	=72	=72	=72	=72	=72	=72
*	*head:regular	*head:x	*	*	*	*
4DD	12Rf\	12Ree/	4BB F G	1ryy	4d	G 7
.	.	.	.	.	.	.
.	12re	12ree	.	.	.	.
.	.	.	.	.	.	.
.	12re	12ree	.	.	.	.
.	.	.	.	.	.	.
4GGG	4re	12Ree/	4r	.	4r	.
.	.	.	.	.	.	.
.	.	12ree	.	.	.	.
.	.	.	.	.	.	.
.	.	12ree	.	.	.	.
.	.	.	.	.	.	.
8GGG	4re	4ree	4BB F G	.	4d	.
.	.	.	.	.	.	.
.	.	.	.	.	.	.
8r	.	.	.	.	.	.
.	.	.	.	.	.	.
.	.	.	.	.	.	.
8DD	4re	16Ree/	4r	.	4r	.
.	.	16ree	.	.	.	.
.	.	.	.	.	.	.
8r	.	8ree	.	.	.	.
.	.	.	.	.	.	.
.	.	.	.	.	.	.
=73	=73	=73	=73	=73	=73	=73
*	*head:regular	*head:x	*	*	*	*
4CC	4re	4ree	4r	1ryy	4r	C 6
.	.	.	.	.	.	.
.	.	.	.	.	.	.
.	.	.	.	.	.	.
.	.	.	.	.	.	.
.	.	.	.	.	.	.
4FF#	4re	16Ree/	4C E A	.	4c	.
.	.	16ree	.	.	.	.
.	.	.	.	.	.	.
.	.	8ree	.	.	.	.
.	.	.	.	.	.	.
.	.	.	.	.	.	.
4GG	4re	4ree	4r	.	4r	.
.	.	.	.	.	.	.
.	.	.	.	.	.	.
.	.	.	.	.	.	.
.	.	.	.	.	.	.
.	.	.	.	.	.	.
6CC	4re	16Ree/	4r	.	4r	.
.	.	16ree	.	.	.	.
.	.	.	.	.	.	.
.	.	8ree	.	.	.	.
12r	.	.	.	.	.	.
.	.	.	.	.	.	.
=74	=74	=74	=74	=74	=74	=74
*	*head:regular	*head:x	*	*	*	*
4AAA	16Rf\	4ree	4r	1ryy	4r	E 8
.	16re	.	.	.	.	.
.	.	.	.	.	.	.
.	8re	.	.	.	.	.
.	.	.	.	.	.	.
.	.	.	.	.	.	.
4DD#	4re	16Ree/	4r	.	4r	.
.	.	16ree	.	.	.	.
.	.	.	.	.	.	.
.	.	8ree	.	.	.	.
.	.	.	.	.	.	.
.	.	.	.	.	.	.
4DD#	4re	4ree	6C F# A	.	6d#	.
.	.	.	.	.	.	.
.	.	.	.	.	.	.
.	.	.	.	.	.	.
.	.	.	12r	.	12r	.
.	.	.	.	.	.	.
8AA	4re	16Ree/	4r	.	4r	.
.	.	16ree	.	.	.	.
.	.	.	.	.	.	.
8r	.	8ree	.	.	.	.
.	.	.	.	.	.	.
.	.	.	.	.	.	.
=75	=75	=75	=75	=75	=75	=75
*	*head:regular	*head:x	*	*	*	*
8.AAA	16Rcc\	4ree	4C F A	1ryy	4d	D b
.	16re	.	.	.	.	.
.	.	.	.	.	.	.
.	8re	.	.	.	.	.
.	.	.	.	.	.	.
16r	.	.	.	.	.	.
4DD	4re	16Ree/	4r	.	4r	.
.	.	16ree	.	.	.	.
.	.	.	.	.	.	.
.	.	8ree	.	.	.	.
.	.	.	.	.	.	.
.	.	.	.	.	.	.
4DD	4re	4ree	4r	.	4r	.
.	.	.	.	.	.	.
.	.	.	.	.	.	.
.	.	.	.	.	.	.
.	.	.	.	.	.	.
.	.	.	.	.	.	.
4FF	4re	16Ree/	4r	.	4r	.
.	.	16ree	.	.	.	.
.	.	.	.	.	.	.
.	.	8ree	.	.	.	.
.	.	.	.	.	.	.
.	.	.	.	.	.	.
=76	=76	=76	=76	=76	=76	=76
*	*head:regular	*head:x	*	*	*	*
4GG	4re	4ree	4r	1ryy	4r	G 7
.	.	.	.	.	.	.
.	.	.	.	.	.	.
.	.	.	.	.	.	.
.	.	.	.	.	.	.
.	.	.	.	.	.	.
4DD	4re	16Ree/	6F B	.	6g dd gg	.
.	.	16ree	.	.	.	.
.	.	.	.	.	.	.
.	.	8ree	.	.	.	.
.	.	.	12r	.	12r	.
.	.	.	.	.	.	.
4BBB	4re	4ree	6F B	.	6d g	.
.	.	.	.	.	.	.
.	.	.	.	.	.	.
.	.	.	.	.	.	.
.	.	.	12r	.	12r	.
.	.	.	.	.	.	.
6DD	4re	16Ree/	4r	.	4r	.
.	.	16ree	.	.	.	.
.	.	.	.	.	.	.
.	.	8ree	.	.	.	.
12r	.	.	.	.	.	.
.	.	.	.	.	.	.
=77	=77	=77	=77	=77	=77	=77
*	*head:regular	*head:x	*	*	*	*
4BBB	4re	4ree	12D G B	1ryy	12e	E b
.	.	.	.	.	.	.
.	.	.	12r	.	12r	.
.	.	.	.	.	.	.
.	.	.	12r	.	12r	.
.	.	.	.	.	.	.
4EE	4re	16Ree/	4r	.	4r	.
.	.	16ree	.	.	.	.
.	.	.	.	.	.	.
.	.	8ree	.	.	.	.
.	.	.	.	.	.	.
.	.	.	.	.	.	.
4EEE	4re	4ree	4r	.	4r	.
.	.	.	.	.	.	.
.	.	.	.	.	.	.
.	.	.	.	.	.	.
.	.	.	.	.	.	.
.	.	.	.	.	.	.
6CC#	4re	16Ree/	4r	.	4r	.
.	.	16ree	.	.	.	.
.	.	.	.	.	.	.
.	.	8ree	.	.	.	.
12r	.	.	.	.	.	.
.	.	.	.	.	.	.
=78	=78	=78	=78	=78	=78	=78
*	*head:regular	*head:x	*	*	*	*
4CC#	4re	4ree	4r	1ryy	4r	A 7
.	.	.	.	.	.	.
.	.	.	.	.	.	.
.	.	.	.	.	.	.
.	.	.	.	.	.	.
.	.	.	.	.	.	.
4GG	4re	16Ree/	4r	.	4r	.
.	.	16ree	.	.	.	.
.	.	.	.	.	.	.
.	.	8ree	.	.	.	.
.	.	.	.	.	.	.
.	.	.	.	.	.	.
4AA	4re	4ree	6C# G A	.	6e	.
.	.	.	.	.	.	.
.	.	.	.	.	.	.
.	.	.	.	.	.	.
.	.	.	12r	.	12r	.
.	.	.	.	.	.	.
8.EE	4re	16Ree/	4r	.	4r	.
.	.	16ree	.	.	.	.
.	.	.	.	.	.	.
.	.	8ree	.	.	.	.
.	.	.	.	.	.	.
16r	.	.	.	.	.	.
=79	=79	=79	=79	=79	=79	=79
*	*head:regular	*head:x	*	*	*	*
8.D	4re	4ree	4r	1ryy	4r	D 7
.	.	.	.	.	.	.
.	.	.	.	.	.	.
.	.	.	.	.	.	.
.	.	.	.	.	.	.
16r	.	.	.	.	.	.
4F#	4re	16Ree/	4r	.	4r	.
.	.	16ree	.	.	.	.
.	.	.	.	.	.	.
.	.	8ree	.	.	.	.
.	.	.	.	.	.	.
.	.	.	.	.	.	.
8FF#	4re	4ree	4r	.	4r	.
.	.	.	.	.	.	.
.	.	.	.	.	.	.
8r	.	.	.	.	.	.
.	.	.	.	.	.	.
.	.	.	.	.	.	.
4DD	4re	16Ree/	4r	.	4r	.
.	.	16ree	.	.	.	.
.	.	.	.	.	.	.
.	.	8ree	.	.	.	.
.	.	.	.	.	.	.
.	.	.	.	.	.	.
=80	=80	=80	=80	=80	=80	=80
*	*head:regular	*head:x	*	*	*	*
4DD	4re	4ree	6F B	1ryy	6g dd gg	G 7
.	.	.	.	.	.	.
.	.	.	.	.	.	.
.	.	.	.	.	.	.
.	.	.	12r	.	12r	.
.	.	.	.	.	.	.
4GG	4re	16Ree/	4F B	.	4d g	.
.	.	16ree	.	.	.	.
.	.	.	.	.	.	.
.	.	8ree	.	.	.	.
.	.	.	.	.	.	.
.	.	.	.	.	.	.
8GGG	4re	4ree	4F B	.	4g dd gg	.
.	.	.	.	.	.	.
.	.	.	.	.	.	.
8r	.	.	.	.	.	.
.	.	.	.	.	.	.
.	.	.	.	.	.	.
4r	4re	4ree	4r	.	4r	.
.	.	.	.	.	.	.
.	.	.	.	.	.	.
.	.	.	.	.	.	.
.	.	.	.	.	.	.
.	.	.	.	.	.	.
=81	=81	=81	=81	=81	=81	=81
*	*head:regular	*head:x	*	*	*	*
4CC	4re	4ree	4r	1ryy	4r	C 6
.	.	.	.	.	.	.
.	.	.	.	.	.	.
.	.	.	.	.	.	.
.	.	.	.	.	.	.
.	.	.	.	.	.	.
8.FFF	4re	16Ree/	4r	.	4r	.
.	.	16ree	.	.	.	.
.	.	.	.	.	.	.
.	.	8ree	.	.	.	.
.	.	.	.	.	.	.
16r	.	.	.	.	.	.
6EEE	4re	16Ree/	4r	.	4r	.
.	.	16ree	.	.	.	.
.	.	.	.	.	.	.
.	.	8ree	.	.	.	.
12r	.	.	.	.	.	.
.	.	.	.	.	.	.
4CC	4re	16Ree/	4r	.	4r	.
.	.	16ree	.	.	.	.
.	.	.	.	.	.	.
.	.	8ree	.	.	.	.
.	.	.	.	.	.	.
.	.	.	.	.	.	.
=82	=82	=82	=82	=82	=82	=82
*	*head:regular	*head:x	*	*	*	*
4CC#	4re	16Ree/	6E	1ryy	6c# g a# gg	C+ 8
.	.	16ree	.	.	.	.
.	.	.	.	.	.	.
.	.	8ree	.	.	.	.
.	.	.	12r	.	12r	.
.	.	.	.	.	.	.
4GGG	4re	16Ree/	4r	.	4r	.
.	.	16ree	.	.	.	.
.	.	.	.	.	.	.
.	.	8ree	.	.	.	.
.	.	.	.	.	.	.
.	.	.	.	.	.	.
4EE	4re	16Ree/	6E A#	.	6c# g	.
.	.	16ree	.	.	.	.
.	.	.	.	.	.	.
.	.	8ree	.	.	.	.
.	.	.	12r	.	12r	.
.	.	.	.	.	.	.
8.AAA#	4re	16Ree/	4r	.	4r	.
.	.	16ree	.	.	.	.
.	.	.	.	.	.	.
.	.	8ree	.	.	.	.
.	.	.	.	.	.	.
16r	.	.	.	.	.	.
=83	=83	=83	=83	=83	=83	=83
*	*head:regular	*head:x	*	*	*	*
8FFF	4re	16Ree/	4r	1ryy	4r	D j
.	.	16ree	.	.	.	.
.	.	.	.	.	.	.
8r	.	8ree	.	.	.	.
.	.	.	.	.	.	.
.	.	.	.	.	.	.
4AAA	4re	16Ree/	4r	.	4r	.
.	.	16ree	.	.	.	.
.	.	.	.	.	.	.
.	.	8ree	.	.	.	.
.	.	.	.	.	.	.
.	.	.	.	.	.	.
4DD	4re	16Ree/	4F B	.	4d a dd	.
.	.	16ree	.	.	.	.
.	.	.	.	.	.	.
.	.	8ree	.	.	.	.
.	.	.	.	.	.	.
.	.	.	.	.	.	.
4BBB	4re	16Ree/	4r	.	4r	.
.	.	16ree	.	.	.	.
.	.	.	.	.	.	.
.	.	8ree	.	.	.	.
.	.	.	.	.	.	.
.	.	.	.	.	.	.
=84	=84	=84	=84	=84	=84	=84
*	*head:regular	*head:x	*	*	*	*
4AAA	4re	16Ree/	4F#	1ryy	4c d# a	D+ 8
.	.	16ree	.	.	.	.
.	.	.	.	.	.	.
.	.	8ree	.	.	.	.
.	.	.	.	.	.	.
.	.	.	.	.	.	.
4DD#	4re	16Ree/	4r	.	4r	.
.	.	16ree	.	.	.	.
.	.	.	.	.	.	.
.	.	8ree	.	.	.	.
.	.	.	.	.	.	.
.	.	.	.	.	.	.
4DD#	4re	16Ree/	4r	.	4r	.
.	.	16ree	.	.	.	.
.	.	.	.	.	.	.
.	.	8ree	.	.	.	.
.	.	.	.	.	.	.
.	.	.	.	.	.	.
4FF#	4re	16Ree/	4r	.	4r	.
.	.	16ree	.	.	.	.
.	.	.	.	.	.	.
.	.	8ree	.	.	.	.
.	.	.	.	.	.	.
.	.	.	.	.	.	.
=85	=85	=85	=85	=85	=85	=85
*	*head:regular	*head:x	*	*	*	*
4GG	4re	12Ree/	4r	1ryy	4r	E b
.	.	.	.	.	.	.
.	.	12ree	.	.	.	.
.	.	.	.	.	.	.
.	.	12ree	.	.	.	.
.	.	.	.	.	.	.
4EE	4re	12Ree/	4D G B	.	4e	.
.	.	.	.	.	.	.
.	.	12ree	.	.	.	.
.	.	.	.	.	.	.
.	.	12ree	.	.	.	.
.	.	.	.	.	.	.
4BBB	4re	12Ree/	4r	.	4r	.
.	.	.	.	.	.	.
.	.	12ree	.	.	.	.
.	.	.	.	.	.	.
.	.	12ree	.	.	.	.
.	.	.	.	.	.	.
4EE	4re	16Ree/	4r	.	4r	.
.	.	16ree	.	.	.	.
.	.	.	.	.	.	.
.	.	8ree	.	.	.	.
.	.	.	.	.	.	.
.	.	.	.	.	.	.
=86	=86	=86	=86	=86	=86	=86
*	*head:regular	*head:x	*	*	*	*
4CC	4re	12Ree/	4r	1ryy	4r	A b
.	.	.	.	.	.	.
.	.	12ree	.	.	.	.
.	.	.	.	.	.	.
.	.	12ree	.	.	.	.
.	.	.	.	.	.	.
4AAA	4re	12Ree/	4r	.	4r	.
.	.	.	.	.	.	.
.	.	12ree	.	.	.	.
.	.	.	.	.	.	.
.	.	12ree	.	.	.	.
.	.	.	.	.	.	.
4AAA	4re	12Ree/	6C G	.	6e a ee	.
.	.	.	.	.	.	.
.	.	12ree	.	.	.	.
.	.	.	.	.	.	.
.	.	12ree	12r	.	12r	.
.	.	.	.	.	.	.
4DD	4re	16Ree/	4r	.	4r	.
.	.	16ree	.	.	.	.
.	.	.	.	.	.	.
.	.	8ree	.	.	.	.
.	.	.	.	.	.	.
.	.	.	.	.	.	.
=87	=87	=87	=87	=87	=87	=87
*	*head:regular	*head:x	*	*	*	*
4DD	4re	12Ree/	4F	1ryy	4c a dd aa	D b
.	.	.	.	.	.	.
.	.	12ree	.	.	.	.
.	.	.	.	.	.	.
.	.	12ree	.	.	.	.
.	.	.	.	.	.	.
4GG#	4re	12Ree/	4r	.	4r	.
.	.	.	.	.	.	.
.	.	12ree	.	.	.	.
.	.	.	.	.	.	.
.	.	12ree	.	.	.	.
.	.	.	.	.	.	.
4AA	4re	12Ree/	4r	.	4r	.
.	.	.	.	.	.	.
.	.	12ree	.	.	.	.
.	.	.	.	.	.	.
.	.	12ree	.	.	.	.
.	.	.	.	.	.	.
4D	4re	12Ree/	4r	.	4r	.
.	.	.	.	.	.	.
.	.	12ree	.	.	.	.
.	.	.	.	.	.	.
.	.	12ree	.	.	.	.
.	.	.	.	.	.	.
=88	=88	=88	=88	=88	=88	=88
*	*head:regular	*head:x	*	*	*	*
4BB	4re	12Ree/	4r	1ryy	4r	G 7
.	.	.	.	.	.	.
.	.	12ree	.	.	.	.
.	.	.	.	.	.	.
.	.	12ree	.	.	.	.
.	.	.	.	.	.	.
4GG	4re	12Ree/	6F B	.	6d g	.
.	.	.	.	.	.	.
.	.	12ree	.	.	.	.
.	.	.	.	.	.	.
.	.	12ree	12r	.	12r	.
.	.	.	.	.	.	.
8GG	4re	16Ree/	4F B	.	4d g	.
.	.	16ree	.	.	.	.
.	.	.	.	.	.	.
8r	.	8ree	.	.	.	.
.	.	.	.	.	.	.
.	.	.	.	.	.	.
8DD	4re	16Ree/	4r	.	4r	.
.	.	16ree	.	.	.	.
.	.	.	.	.	.	.
8r	.	8ree	.	.	.	.
.	.	.	.	.	.	.
.	.	.	.	.	.	.
=89	=89	=89	=89	=89	=89	=89
*	*head:regular	*head:x	*	*	*	*
4CC	4re	4ree	4r	1ryy	4r	C 6
.	.	.	.	.	.	.
.	.	.	.	.	.	.
.	.	.	.	.	.	.
.	.	.	.	.	.	.
.	.	.	.	.	.	.
8.FFF	4re	16Ree/	4r	.	4r	.
.	.	16ree	.	.	.	.
.	.	.	.	.	.	.
.	.	8ree	.	.	.	.
.	.	.	.	.	.	.
16r	.	.	.	.	.	.
6EEE	4re	16Ree/	4E	.	4c a cc aa	.
.	.	16ree	.	.	.	.
.	.	.	.	.	.	.
.	.	8ree	.	.	.	.
12r	.	.	.	.	.	.
.	.	.	.	.	.	.
4CC	4re	16Ree/	4r	.	4r	.
.	.	16ree	.	.	.	.
.	.	.	.	.	.	.
.	.	8ree	.	.	.	.
.	.	.	.	.	.	.
.	.	.	.	.	.	.
=90	=90	=90	=90	=90	=90	=90
*	*head:regular	*head:x	*	*	*	*
4CC	4re	16Ree/	4r	1ryy	4r	C 7
.	.	16ree	.	.	.	.
.	.	.	.	.	.	.
.	.	8ree	.	.	.	.
.	.	.	.	.	.	.
.	.	.	.	.	.	.
4GGG	4re	16Ree/	4r	.	4r	.
.	.	16ree	.	.	.	.
.	.	.	.	.	.	.
.	.	8ree	.	.	.	.
.	.	.	.	.	.	.
.	.	.	.	.	.	.
4EEE	4re	16Ree/	6A#	.	6e cc gg ccc	.
.	.	16ree	.	.	.	.
.	.	.	.	.	.	.
.	.	8ree	.	.	.	.
.	.	.	12r	.	12r	.
.	.	.	.	.	.	.
8.CC	4re	16Ree/	4r	.	4r	.
.	.	16ree	.	.	.	.
.	.	.	.	.	.	.
.	.	8ree	.	.	.	.
.	.	.	.	.	.	.
16r	.	.	.	.	.	.
=91	=91	=91	=91	=91	=91	=91
*	*head:regular	*head:x	*	*	*	*
8CC	4re	16Ree/	4r	1ryy	4r	F c
.	.	16ree	.	.	.	.
.	.	.	.	.	.	.
8r	.	8ree	.	.	.	.
.	.	.	.	.	.	.
.	.	.	.	.	.	.
4FF	4re	16Ree/	4r	.	4r	.
.	.	16ree	.	.	.	.
.	.	.	.	.	.	.
.	.	8ree	.	.	.	.
.	.	.	.	.	.	.
.	.	.	.	.	.	.
4AA	4re	16Ree/	4A	.	4e cc ff ccc	.
.	.	16ree	.	.	.	.
.	.	.	.	.	.	.
.	.	8ree	.	.	.	.
.	.	.	.	.	.	.
.	.	.	.	.	.	.
4FF	4re	16Ree/	4r	.	4r	.
.	.	16ree	.	.	.	.
.	.	.	.	.	.	.
.	.	8ree	.	.	.	.
.	.	.	.	.	.	.
.	.	.	.	.	.	.
=92	=92	=92	=92	=92	=92	=92
*	*head:regular	*head:x	*	*	*	*
4FFF#	4re	16Ree/	4r	1ryy	4r	F+ W
.	.	16ree	.	.	.	.
.	.	.	.	.	.	.
.	.	8ree	.	.	.	.
.	.	.	.	.	.	.
.	.	.	.	.	.	.
4CC	4re	16Ree/	4A	.	4e f# cc ee ccc	.
.	.	16ree	.	.	.	.
.	.	.	.	.	.	.
.	.	8ree	.	.	.	.
.	.	.	.	.	.	.
.	.	.	.	.	.	.
4BBB	4re	16Ree/	4r	.	4r	B 7
.	.	16ree	.	.	.	.
.	.	.	.	.	.	.
.	.	8ree	.	.	.	.
.	.	.	.	.	.	.
.	.	.	.	.	.	.
4AAA	4re	16Ree/	8.A	.	8.d# b ff# bb	.
.	.	16ree	.	.	.	.
.	.	.	.	.	.	.
.	.	8ree	.	.	.	.
.	.	.	.	.	.	.
.	.	.	16r	.	16r	.
=93	=93	=93	=93	=93	=93	=93
*	*head:regular	*head:x	*	*	*	*
6EEE	12Rf\	12Ree/	4G	1ryy	4d b ee bb	E b
.	.	.	.	.	.	.
.	12re	12ree	.	.	.	.
.	.	.	.	.	.	.
12r	12re	12ree	.	.	.	.
.	.	.	.	.	.	.
8.CC	4re	16Ree/	4r	.	4r	.
.	.	16ree	.	.	.	.
.	.	.	.	.	.	.
.	.	8ree	.	.	.	.
.	.	.	.	.	.	.
16r	.	.	.	.	.	.
4CC#	12Rf\	12Ree/	4G	.	4c# a ee aa	A 7
.	.	.	.	.	.	.
.	12re	12ree	.	.	.	.
.	.	.	.	.	.	.
.	12re	12ree	.	.	.	.
.	.	.	.	.	.	.
4AAA	4re	12Ree/	4r	.	4r	.
.	.	.	.	.	.	.
.	.	12ree	.	.	.	.
.	.	.	.	.	.	.
.	.	12ree	.	.	.	.
.	.	.	.	.	.	.
=94	=94	=94	=94	=94	=94	=94
*	*head:regular	*head:x	*	*	*	*
8AA	4re	12Ree/	4r	1ryy	4r	D b
.	.	.	.	.	.	.
.	.	12ree	.	.	.	.
8r	.	.	.	.	.	.
.	.	12ree	.	.	.	.
.	.	.	.	.	.	.
4D	12Rf\	16Ree/	4r	.	4r	.
.	.	16ree	.	.	.	.
.	12re	.	.	.	.	.
.	.	8ree	.	.	.	.
.	12re	.	.	.	.	.
.	.	.	.	.	.	.
4DD	4re	12Ree/	6F B	.	6g dd gg	G 7
.	.	.	.	.	.	.
.	.	12ree	.	.	.	.
.	.	.	.	.	.	.
.	.	12ree	12r	.	12r	.
.	.	.	.	.	.	.
6GG	4re	16Ree/	4r	.	4r	.
.	.	16ree	.	.	.	.
.	.	.	.	.	.	.
.	.	8ree	.	.	.	.
12r	.	.	.	.	.	.
.	.	.	.	.	.	.
=95	=95	=95	=95	=95	=95	=95
*	*head:regular	*head:x	*	*	*	*
4CC	4re	12Ree/	4r	1ryy	4r	C 6
.	.	.	.	.	.	.
.	.	12ree	.	.	.	.
.	.	.	.	.	.	.
.	.	12ree	.	.	.	.
.	.	.	.	.	.	.
4GGG	4re	12Ree/	4r	.	4r	.
.	.	.	.	.	.	.
.	.	12ree	.	.	.	.
.	.	.	.	.	.	.
.	.	12ree	.	.	.	.
.	.	.	.	.	.	.
4EEE	4re	12Ree/	4E	.	4c g a cc	.
.	.	.	.	.	.	.
.	.	12ree	.	.	.	.
.	.	.	.	.	.	.
.	.	12ree	.	.	.	.
.	.	.	.	.	.	.
4GGG	12Rf\	16Ree/	4r	.	4r	.
.	.	16ree	.	.	.	.
.	12re	.	.	.	.	.
.	.	8ree	.	.	.	.
.	12re	.	.	.	.	.
.	.	.	.	.	.	.
=96	=96	=96	=96	=96	=96	=96
*	*head:regular	*head:x	*	*	*	*
4CC	4re	16Ree/	4E	1ryy	4c g a cc	C 6
.	.	16ree	.	.	.	.
.	.	.	.	.	.	.
.	.	8ree	.	.	.	.
.	.	.	.	.	.	.
.	.	.	.	.	.	.
4GG	4re	16Ree/	4r	.	4r	.
.	.	16ree	.	.	.	.
.	.	.	.	.	.	.
.	.	8ree	.	.	.	.
.	.	.	.	.	.	.
.	.	.	.	.	.	.
8GG	4re	16Ree/	4C E A	.	4c	.
.	.	16ree	.	.	.	.
.	.	.	.	.	.	.
8r	.	8ree	.	.	.	.
.	.	.	.	.	.	.
.	.	.	.	.	.	.
4r	16Rf\	16Ree/	4r	.	4r	.
.	16re	16ree	.	.	.	.
.	.	.	.	.	.	.
.	8re	8ree	.	.	.	.
.	.	.	.	.	.	.
.	.	.	.	.	.	.
=97	=97	=97	=97	=97	=97	=97
*	*head:regular	*head:x	*	*	*	*
6C	4re	4ree	4r	1ryy	4r	C 6
.	.	.	.	.	.	.
.	.	.	.	.	.	.
.	.	.	.	.	.	.
12r	.	.	.	.	.	.
.	.	.	.	.	.	.
4AA	4re	12Ree/	4r	.	4r	.
.	.	.	.	.	.	.
.	.	12ree	.	.	.	.
.	.	.	.	.	.	.
.	.	12ree	.	.	.	.
.	.	.	.	.	.	.
4GG	4re	12Ree/	4C E A	.	4c	.
.	.	.	.	.	.	.
.	.	12ree	.	.	.	.
.	.	.	.	.	.	.
.	.	12ree	.	.	.	.
.	.	.	.	.	.	.
4C	4re	16Ree/	4r	.	4r	.
.	.	16ree	.	.	.	.
.	.	.	.	.	.	.
.	.	8ree	.	.	.	.
.	.	.	.	.	.	.
.	.	.	.	.	.	.
=98	=98	=98	=98	=98	=98	=98
*	*head:regular	*head:x	*	*	*	*
4CC#	4re	12Ree/	4r	1ryy	4r	C+ 8
.	.	.	.	.	.	.
.	.	12ree	.	.	.	.
.	.	.	.	.	.	.
.	.	12ree	.	.	.	.
.	.	.	.	.	.	.
4AAA#	4re	12Ree/	4r	.	4r	.
.	.	.	.	.	.	.
.	.	12ree	.	.	.	.
.	.	.	.	.	.	.
.	.	12ree	.	.	.	.
.	.	.	.	.	.	.
4EEE	4re	12Ree/	6E	.	6c# g a# gg	.
.	.	.	.	.	.	.
.	.	12ree	.	.	.	.
.	.	.	.	.	.	.
.	.	12ree	12r	.	12r	.
.	.	.	.	.	.	.
4GGG	4re	12Ree/	4r	.	4r	.
.	.	.	.	.	.	.
.	.	12ree	.	.	.	.
.	.	.	.	.	.	.
.	.	12ree	.	.	.	.
.	.	.	.	.	.	.
=99	=99	=99	=99	=99	=99	=99
*	*head:regular	*head:x	*	*	*	*
4DD	4re	12Ree/	4r	1ryy	4r	D j
.	.	.	.	.	.	.
.	.	12ree	.	.	.	.
.	.	.	.	.	.	.
.	.	12ree	.	.	.	.
.	.	.	.	.	.	.
6AAA	4re	16Ree/	4r	.	4r	.
.	.	16ree	.	.	.	.
.	.	.	.	.	.	.
.	.	8ree	.	.	.	.
12r	.	.	.	.	.	.
.	.	.	.	.	.	.
4FFF	4re	12Ree/	4F B	.	4d a	.
.	.	.	.	.	.	.
.	.	12ree	.	.	.	.
.	.	.	.	.	.	.
.	.	12ree	.	.	.	.
.	.	.	.	.	.	.
4BBB	12Rf\	16Ree/	4r	.	4r	.
.	.	16ree	.	.	.	.
.	12re	.	.	.	.	.
.	.	8ree	.	.	.	.
.	12re	.	.	.	.	.
.	.	.	.	.	.	.
=100	=100	=100	=100	=100	=100	=100
*	*head:regular	*head:x	*	*	*	*
4DD#	4re	12Ree/	4r	1ryy	4r	D+ 8
.	.	.	.	.	.	.
.	.	12ree	.	.	.	.
.	.	.	.	.	.	.
.	.	12ree	.	.	.	.
.	.	.	.	.	.	.
4AAA	4re	12Ree/	4r	.	4r	.
.	.	.	.	.	.	.
.	.	12ree	.	.	.	.
.	.	.	.	.	.	.
.	.	12ree	.	.	.	.
.	.	.	.	.	.	.
4AA	4re	12Ree/	4C F# A	.	4d#	.
.	.	.	.	.	.	.
.	.	12ree	.	.	.	.
.	.	.	.	.	.	.
.	.	12ree	.	.	.	.
.	.	.	.	.	.	.
4FF#	4re	12Ree/	4r	.	4r	.
.	.	.	.	.	.	.
.	.	12ree	.	.	.	.
.	.	.	.	.	.	.
.	.	12ree	.	.	.	.
.	.	.	.	.	.	.
=101	=101	=101	=101	=101	=101	=101
*	*head:regular	*head:x	*	*	*	*
6EEE	4re	12Ree/	4D G B	1ryy	4e	E b
.	.	.	.	.	.	.
.	.	12ree	.	.	.	.
.	.	.	.	.	.	.
12r	.	12ree	.	.	.	.
.	.	.	.	.	.	.
8.AAA#	4re	16Ree/	4r	.	4r	.
.	.	16ree	.	.	.	.
.	.	.	.	.	.	.
.	.	8ree	.	.	.	.
.	.	.	.	.	.	.
16r	.	.	.	.	.	.
4BBB	4re	12Ree/	4r	.	4r	.
.	.	.	.	.	.	.
.	.	12ree	.	.	.	.
.	.	.	.	.	.	.
.	.	12ree	.	.	.	.
.	.	.	.	.	.	.
4AAA#	12Rf\	16Ree/	4r	.	4r	.
.	.	16ree	.	.	.	.
.	12re	.	.	.	.	.
.	.	8ree	.	.	.	.
.	12re	.	.	.	.	.
.	.	.	.	.	.	.
=102	=102	=102	=102	=102	=102	=102
*	*head:regular	*head:x	*	*	*	*
8AAA	4re	12Ree/	4r	1ryy	4r	A b
.	.	.	.	.	.	.
.	.	12ree	.	.	.	.
8r	.	.	.	.	.	.
.	.	12ree	.	.	.	.
.	.	.	.	.	.	.
4EE	4re	12Ree/	4C G	.	4e a ee	.
.	.	.	.	.	.	.
.	.	12ree	.	.	.	.
.	.	.	.	.	.	.
.	.	12ree	.	.	.	.
.	.	.	.	.	.	.
4CC	4re	12Ree/	6C G	.	6e a ee	.
.	.	.	.	.	.	.
.	.	12ree	.	.	.	.
.	.	.	.	.	.	.
.	.	12ree	12r	.	12r	.
.	.	.	.	.	.	.
6AAA	4re	12Ree/	4r	.	4r	.
.	.	.	.	.	.	.
.	.	12ree	.	.	.	.
.	.	.	.	.	.	.
12r	.	12ree	.	.	.	.
.	.	.	.	.	.	.
=103	=103	=103	=103	=103	=103	=103
*	*head:regular	*head:x	*	*	*	*
4FF	4re	12Ree/	4F	1ryy	4c a dd aa	D b
.	.	.	.	.	.	.
.	.	12ree	.	.	.	.
.	.	.	.	.	.	.
.	.	12ree	.	.	.	.
.	.	.	.	.	.	.
4DD#	4re	12Ree/	4r	.	4r	.
.	.	.	.	.	.	.
.	.	12ree	.	.	.	.
.	.	.	.	.	.	.
.	.	12ree	.	.	.	.
.	.	.	.	.	.	.
4DD	4re	12Ree/	4r	.	4r	.
.	.	.	.	.	.	.
.	.	12ree	.	.	.	.
.	.	.	.	.	.	.
.	.	12ree	.	.	.	.
.	.	.	.	.	.	.
4CC#	4re	12Ree/	4r	.	4r	.
.	.	.	.	.	.	.
.	.	12ree	.	.	.	.
.	.	.	.	.	.	.
.	.	12ree	.	.	.	.
.	.	.	.	.	.	.
=104	=104	=104	=104	=104	=104	=104
*	*head:regular	*head:x	*	*	*	*
4DD	4re	12Ree/	4r	1ryy	4r	G 7
.	.	.	.	.	.	.
.	.	12ree	.	.	.	.
.	.	.	.	.	.	.
.	.	12ree	.	.	.	.
.	.	.	.	.	.	.
4GG	4re	16Ree/	6BB F G	.	6d	.
.	.	16ree	.	.	.	.
.	.	.	.	.	.	.
.	.	8ree	.	.	.	.
.	.	.	12r	.	12r	.
.	.	.	.	.	.	.
8GGG	4re	4ree	4F B	.	4g dd gg	.
.	.	.	.	.	.	.
.	.	.	.	.	.	.
8r	.	.	.	.	.	.
.	.	.	.	.	.	.
.	.	.	.	.	.	.
4r	4re	16Ree/	4r	.	4r	.
.	.	16ree	.	.	.	.
.	.	.	.	.	.	.
.	.	8ree	.	.	.	.
.	.	.	.	.	.	.
.	.	.	.	.	.	.
=105	=105	=105	=105	=105	=105	=105
*	*head:regular	*head:x	*	*	*	*
4CC	4re	4ree	4r	1ryy	4r	C 6
.	.	.	.	.	.	.
.	.	.	.	.	.	.
.	.	.	.	.	.	.
.	.	.	.	.	.	.
.	.	.	.	.	.	.
4GGG	4re	16Ree/	4r	.	4r	.
.	.	16ree	.	.	.	.
.	.	.	.	.	.	.
.	.	8ree	.	.	.	.
.	.	.	.	.	.	.
.	.	.	.	.	.	.
6GG	4re	4ree	4E	.	4c g a cc	.
.	.	.	.	.	.	.
.	.	.	.	.	.	.
.	.	.	.	.	.	.
12r	.	.	.	.	.	.
.	.	.	.	.	.	.
4C	4re	16Ree/	4r	.	4r	.
.	.	16ree	.	.	.	.
.	.	.	.	.	.	.
.	.	8ree	.	.	.	.
.	.	.	.	.	.	.
.	.	.	.	.	.	.
=106	=106	=106	=106	=106	=106	=106
*	*head:regular	*head:x	*	*	*	*
4D#	4re	4ree	4r	1ryy	4r	E 8
.	.	.	.	.	.	.
.	.	.	.	.	.	.
.	.	.	.	.	.	.
.	.	.	.	.	.	.
.	.	.	.	.	.	.
4AA#	4re	16Ree/	4r	.	4r	.
.	.	16ree	.	.	.	.
.	.	.	.	.	.	.
.	.	8ree	.	.	.	.
.	.	.	.	.	.	.
.	.	.	.	.	.	.
4AA	4re	4ree	6F#	.	6c d# a	.
.	.	.	.	.	.	.
.	.	.	.	.	.	.
.	.	.	.	.	.	.
.	.	.	12r	.	12r	.
.	.	.	.	.	.	.
8.DD	4re	16Ree/	4r	.	4r	.
.	.	16ree	.	.	.	.
.	.	.	.	.	.	.
.	.	8ree	.	.	.	.
.	.	.	.	.	.	.
16r	.	.	.	.	.	.
=107	=107	=107	=107	=107	=107	=107
*	*head:regular	*head:x	*	*	*	*
8DD	4re	4ree	4r	1ryy	4r	D b
.	.	.	.	.	.	.
.	.	.	.	.	.	.
8r	.	.	.	.	.	.
.	.	.	.	.	.	.
.	.	.	.	.	.	.
8.AAA	4re	16Ree/	4r	.	4r	.
.	.	16ree	.	.	.	.
.	.	.	.	.	.	.
.	.	8ree	.	.	.	.
.	.	.	.	.	.	.
16r	.	.	.	.	.	.
4AAA	4re	4ree	4C F A	.	4d	.
.	.	.	.	.	.	.
.	.	.	.	.	.	.
.	.	.	.	.	.	.
.	.	.	.	.	.	.
.	.	.	.	.	.	.
4CC	4re	16Ree/	4r	.	4r	.
.	.	16ree	.	.	.	.
.	.	.	.	.	.	.
.	.	8ree	.	.	.	.
.	.	.	.	.	.	.
.	.	.	.	.	.	.
=108	=108	=108	=108	=108	=108	=108
*	*head:regular	*head:x	*	*	*	*
4DD	4re	4ree	4r	1ryy	4r	G 7
.	.	.	.	.	.	.
.	.	.	.	.	.	.
.	.	.	.	.	.	.
.	.	.	.	.	.	.
.	.	.	.	.	.	.
4BBB	4re	16Ree/	4BB F G	.	4d	.
.	.	16ree	.	.	.	.
.	.	.	.	.	.	.
.	.	8ree	.	.	.	.
.	.	.	.	.	.	.
.	.	.	.	.	.	.
4GGG	4re	4ree	4r	.	4r	.
.	.	.	.	.	.	.
.	.	.	.	.	.	.
.	.	.	.	.	.	.
.	.	.	.	.	.	.
.	.	.	.	.	.	.
4BBB	4re	16Ree/	8.F B	.	8.d g	.
.	.	16ree	.	.	.	.
.	.	.	.	.	.	.
.	.	8ree	.	.	.	.
.	.	.	.	.	.	.
.	.	.	16r	.	16r	.
=109	=109	=109	=109	=109	=109	=109
*	*head:regular	*head:x	*	*	*	*
4BBB	4re	4ree	4D G B	1ryy	4e	E b
.	.	.	.	.	.	.
.	.	.	.	.	.	.
.	.	.	.	.	.	.
.	.	.	.	.	.	.
.	.	.	.	.	.	.
4EE	4re	16Ree/	4r	.	4r	.
.	.	16ree	.	.	.	.
.	.	.	.	.	.	.
.	.	8ree	.	.	.	.
.	.	.	.	.	.	.
.	.	.	.	.	.	.
4GG	4re	4ree	4r	.	4r	.
.	.	.	.	.	.	.
.	.	.	.	.	.	.
.	.	.	.	.	.	.
.	.	.	.	.	.	.
.	.	.	.	.	.	.
4DD	12Rf\	16Ree/	4r	.	4r	.
.	.	16ree	.	.	.	.
.	12re	.	.	.	.	.
.	.	8ree	.	.	.	.
.	12re	.	.	.	.	.
.	.	.	.	.	.	.
=110	=110	=110	=110	=110	=110	=110
*	*head:regular	*head:x	*	*	*	*
4EEE	4re	4ree	4G	1ryy	4c# a ee aa	A 7
.	.	.	.	.	.	.
.	.	.	.	.	.	.
.	.	.	.	.	.	.
.	.	.	.	.	.	.
.	.	.	.	.	.	.
4AAA	4re	16Ree/	4r	.	4r	.
.	.	16ree	.	.	.	.
.	.	.	.	.	.	.
.	.	8ree	.	.	.	.
.	.	.	.	.	.	.
.	.	.	.	.	.	.
4CC#	4re	4ree	4r	.	4r	.
.	.	.	.	.	.	.
.	.	.	.	.	.	.
.	.	.	.	.	.	.
.	.	.	.	.	.	.
.	.	.	.	.	.	.
4GGG	4re	16Ree/	4r	.	4r	.
.	.	16ree	.	.	.	.
.	.	.	.	.	.	.
.	.	8ree	.	.	.	.
.	.	.	.	.	.	.
.	.	.	.	.	.	.
=111	=111	=111	=111	=111	=111	=111
*	*head:regular	*head:x	*	*	*	*
4FFF#	4re	4ree	8.F#	1ryy	8.c d a	D 7
.	.	.	.	.	.	.
.	.	.	.	.	.	.
.	.	.	.	.	.	.
.	.	.	.	.	.	.
.	.	.	16r	.	16r	.
4CC#	4re	16Ree/	4r	.	8.c f# a dd	.
.	.	16ree	.	.	.	.
.	.	.	.	.	.	.
.	.	8ree	.	.	.	.
.	.	.	.	.	.	.
.	.	.	.	.	16r	.
4DD	4re	4ree	8.F#	.	8.c d a	.
.	.	.	.	.	.	.
.	.	.	.	.	.	.
.	.	.	.	.	.	.
.	.	.	.	.	.	.
.	.	.	16r	.	16r	.
4AAA	4re	16Ree/	8.F#	.	8.c d a	.
.	.	16ree	.	.	.	.
.	.	.	.	.	.	.
.	.	8ree	.	.	.	.
.	.	.	.	.	.	.
.	.	.	16r	.	16r	.
=112	=112	=112	=112	=112	=112	=112
*	*head:regular	*head:x	*	*	*	*
4GG	4re	4ree	6F B	1ryy	6g dd gg	G 7
.	.	.	.	.	.	.
.	.	.	.	.	.	.
.	.	.	.	.	.	.
.	.	.	12r	.	12r	.
.	.	.	.	.	.	.
4DD	4re	16Ree/	4r	.	4r	.
.	.	16ree	.	.	.	.
.	.	.	.	.	.	.
.	.	8ree	.	.	.	.
.	.	.	.	.	.	.
.	.	.	.	.	.	.
8DD	4re	4ree	4F B	.	4d g	.
.	.	.	.	.	.	.
.	.	.	.	.	.	.
8r	.	.	.	.	.	.
.	.	.	.	.	.	.
.	.	.	.	.	.	.
8GG	4re	16Ree/	4r	.	4r	.
.	.	16ree	.	.	.	.
.	.	.	.	.	.	.
8r	.	8ree	.	.	.	.
.	.	.	.	.	.	.
.	.	.	.	.	.	.
=113	=113	=113	=113	=113	=113	=113
*	*head:regular	*head:x	*	*	*	*
4CC	4re	4ree	4r	1ryy	4r	C 6
.	.	.	.	.	.	.
.	.	.	.	.	.	.
.	.	.	.	.	.	.
.	.	.	.	.	.	.
.	.	.	.	.	.	.
4FFF	4re	12Ree/	4r	.	4r	.
.	.	.	.	.	.	.
.	.	12ree	.	.	.	.
.	.	.	.	.	.	.
.	.	12ree	.	.	.	.
.	.	.	.	.	.	.
6EEE	12Rf\	12Ree/	4r	.	4r	.
.	.	.	.	.	.	.
.	12re	12ree	.	.	.	.
.	.	.	.	.	.	.
12r	12re	12ree	.	.	.	.
.	.	.	.	.	.	.
4AAA	4re	12Ree/	4r	.	4r	.
.	.	.	.	.	.	.
.	.	12ree	.	.	.	.
.	.	.	.	.	.	.
.	.	12ree	.	.	.	.
.	.	.	.	.	.	.
=114	=114	=114	=114	=114	=114	=114
*	*head:regular	*head:x	*	*	*	*
4CC#	4re	12Ree/	6E A#	1ryy	6c# g	C+ 8
.	.	.	.	.	.	.
.	.	12ree	.	.	.	.
.	.	.	.	.	.	.
.	.	12ree	12r	.	12r	.
.	.	.	.	.	.	.
4GG	4re	12Ree/	4r	.	4r	.
.	.	.	.	.	.	.
.	.	12ree	.	.	.	.
.	.	.	.	.	.	.
.	.	12ree	.	.	.	.
.	.	.	.	.	.	.
4GG	4re	12Ree/	4r	.	4r	.
.	.	.	.	.	.	.
.	.	12ree	.	.	.	.
.	.	.	.	.	.	.
.	.	12ree	.	.	.	.
.	.	.	.	.	.	.
8.C#	4re	12Ree/	4r	.	4r	.
.	.	.	.	.	.	.
.	.	12ree	.	.	.	.
.	.	.	.	.	.	.
.	.	12ree	.	.	.	.
16r	.	.	.	.	.	.
=115	=115	=115	=115	=115	=115	=115
*	*head:regular	*head:x	*	*	*	*
8D	4re	12Ree/	4F B	1ryy	4d a	D j
.	.	.	.	.	.	.
.	.	12ree	.	.	.	.
8r	.	.	.	.	.	.
.	.	12ree	.	.	.	.
.	.	.	.	.	.	.
8.BB	12Rf\	16Ree/	4r	.	4r	.
.	.	16ree	.	.	.	.
.	12re	.	.	.	.	.
.	.	8ree	.	.	.	.
.	12re	.	.	.	.	.
16r	.	.	.	.	.	.
4FF	4re	12Ree/	4r	.	4r	.
.	.	.	.	.	.	.
.	.	12ree	.	.	.	.
.	.	.	.	.	.	.
.	.	12ree	.	.	.	.
.	.	.	.	.	.	.
4AA	4re	12Ree/	4r	.	4r	.
.	.	.	.	.	.	.
.	.	12ree	.	.	.	.
.	.	.	.	.	.	.
.	.	12ree	.	.	.	.
.	.	.	.	.	.	.
=116	=116	=116	=116	=116	=116	=116
*	*head:regular	*head:x	*	*	*	*
4DD#	4re	12Ree/	4r	1ryy	4r	D+ 8
.	.	.	.	.	.	.
.	.	12ree	.	.	.	.
.	.	.	.	.	.	.
.	.	12ree	.	.	.	.
.	.	.	.	.	.	.
4AAA	12Rf\	16Ree/	4r	.	4r	.
.	.	16ree	.	.	.	.
.	12re	.	.	.	.	.
.	.	8ree	.	.	.	.
.	12re	.	.	.	.	.
.	.	.	.	.	.	.
4FFF#	4re	12Ree/	4r	.	4r	.
.	.	.	.	.	.	.
.	.	12ree	.	.	.	.
.	.	.	.	.	.	.
.	.	12ree	.	.	.	.
.	.	.	.	.	.	.
4DD#	4re	12Ree/	4r	.	4r	.
.	.	.	.	.	.	.
.	.	12ree	.	.	.	.
.	.	.	.	.	.	.
.	.	12ree	.	.	.	.
.	.	.	.	.	.	.
=117	=117	=117	=117	=117	=117	=117
*	*head:regular	*head:x	*	*	*	*
4BBB	4re	12Ree/	12G	1ryy	12d e b	E b
.	.	.	.	.	.	.
.	.	12ree	12r	.	12r	.
.	.	.	.	.	.	.
.	.	12ree	12r	.	12r	.
.	.	.	.	.	.	.
4EE	4re	12Ree/	4r	.	4r	.
.	.	.	.	.	.	.
.	.	12ree	.	.	.	.
.	.	.	.	.	.	.
.	.	12ree	.	.	.	.
.	.	.	.	.	.	.
4EEE	4re	12Ree/	4r	.	4r	.
.	.	.	.	.	.	.
.	.	12ree	.	.	.	.
.	.	.	.	.	.	.
.	.	12ree	.	.	.	.
.	.	.	.	.	.	.
6BBB	4re	12Ree/	4r	.	4r	.
.	.	.	.	.	.	.
.	.	12ree	.	.	.	.
.	.	.	.	.	.	.
12r	.	12ree	.	.	.	.
.	.	.	.	.	.	.
=118	=118	=118	=118	=118	=118	=118
*	*head:regular	*head:x	*	*	*	*
4CC	12Rf\	12Ree/	4r	1ryy	4r	A b
.	.	.	.	.	.	.
.	12re	12ree	.	.	.	.
.	.	.	.	.	.	.
.	12re	12ree	.	.	.	.
.	.	.	.	.	.	.
4EE	4re	12Ree/	4r	.	4r	.
.	.	.	.	.	.	.
.	.	12ree	.	.	.	.
.	.	.	.	.	.	.
.	.	12ree	.	.	.	.
.	.	.	.	.	.	.
4EE	4re	12Ree/	4r	.	6c g a ee	.
.	.	.	.	.	.	.
.	.	12ree	.	.	.	.
.	.	.	.	.	.	.
.	.	12ree	.	.	12r	.
.	.	.	.	.	.	.
8AAA	4re	12Ree/	4r	.	4r	.
.	.	.	.	.	.	.
.	.	12ree	.	.	.	.
8r	.	.	.	.	.	.
.	.	12ree	.	.	.	.
.	.	.	.	.	.	.
=119	=119	=119	=119	=119	=119	=119
*	*head:regular	*head:x	*	*	*	*
8.AAA	4re	12Ree/	4r	1ryy	4r	D b
.	.	.	.	.	.	.
.	.	12ree	.	.	.	.
.	.	.	.	.	.	.
.	.	12ree	.	.	.	.
16r	.	.	.	.	.	.
4CC	4re	16Ree/	4r	.	4r	.
.	.	16ree	.	.	.	.
.	.	.	.	.	.	.
.	.	8ree	.	.	.	.
.	.	.	.	.	.	.
.	.	.	.	.	.	.
4DD	4re	12Ree/	4r	.	4r	.
.	.	.	.	.	.	.
.	.	12ree	.	.	.	.
.	.	.	.	.	.	.
.	.	12ree	.	.	.	.
.	.	.	.	.	.	.
4AAA	4re	12Ree/	4r	.	4r	.
.	.	.	.	.	.	.
.	.	12ree	.	.	.	.
.	.	.	.	.	.	.
.	.	12ree	.	.	.	.
.	.	.	.	.	.	.
=120	=120	=120	=120	=120	=120	=120
*	*head:regular	*head:x	*	*	*	*
4GGG	4re	12Ree/	6F B	1ryy	6d g	G 7
.	.	.	.	.	.	.
.	.	12ree	.	.	.	.
.	.	.	.	.	.	.
.	.	12ree	12r	.	12r	.
.	.	.	.	.	.	.
4CC#	4re	12Ree/	4F B	.	4d g	.
.	.	.	.	.	.	.
.	.	12ree	.	.	.	.
.	.	.	.	.	.	.
.	.	12ree	.	.	.	.
.	.	.	.	.	.	.
8DD	4re	4ree	4F B	.	4g dd gg	.
.	.	.	.	.	.	.
.	.	.	.	.	.	.
8r	.	.	.	.	.	.
.	.	.	.	.	.	.
.	.	.	.	.	.	.
4r	4re	16Ree/	4r	.	4r	.
.	.	16ree	.	.	.	.
.	.	.	.	.	.	.
.	.	8ree	.	.	.	.
.	.	.	.	.	.	.
.	.	.	.	.	.	.
=121	=121	=121	=121	=121	=121	=121
*	*head:regular	*head:x	*	*	*	*
6CC	4re	4ree	4r	1ryy	4r	C 6
.	.	.	.	.	.	.
.	.	.	.	.	.	.
.	.	.	.	.	.	.
12r	.	.	.	.	.	.
.	.	.	.	.	.	.
4r	4re	12Ree/	4r	.	4r	.
.	.	.	.	.	.	.
.	.	12ree	.	.	.	.
.	.	.	.	.	.	.
.	.	12ree	.	.	.	.
.	.	.	.	.	.	.
4CC	4re	12Ree/	4E	.	4c a cc aa	.
.	.	.	.	.	.	.
.	.	12ree	.	.	.	.
.	.	.	.	.	.	.
.	.	12ree	.	.	.	.
.	.	.	.	.	.	.
4CC	4re	12Ree/	4r	.	4r	.
.	.	.	.	.	.	.
.	.	12ree	.	.	.	.
.	.	.	.	.	.	.
.	.	12ree	.	.	.	.
.	.	.	.	.	.	.
=122	=122	=122	=122	=122	=122	=122
*	*head:regular	*head:x	*	*	*	*
4CC	4re	12Ree/	4E A#	1ryy	4c g	C 7
.	.	.	.	.	.	.
.	.	12ree	.	.	.	.
.	.	.	.	.	.	.
.	.	12ree	.	.	.	.
.	.	.	.	.	.	.
4AAA#	4re	12Ree/	4r	.	4r	.
.	.	.	.	.	.	.
.	.	12ree	.	.	.	.
.	.	.	.	.	.	.
.	.	12ree	.	.	.	.
.	.	.	.	.	.	.
4EEE	4re	12Ree/	4r	.	4r	.
.	.	.	.	.	.	.
.	.	12ree	.	.	.	.
.	.	.	.	.	.	.
.	.	12ree	.	.	.	.
.	.	.	.	.	.	.
4GGG	4re	12Ree/	4r	.	4r	.
.	.	.	.	.	.	.
.	.	12ree	.	.	.	.
.	.	.	.	.	.	.
.	.	12ree	.	.	.	.
.	.	.	.	.	.	.
=123	=123	=123	=123	=123	=123	=123
*	*head:regular	*head:x	*	*	*	*
4CC	4re	12Ree/	4A	1ryy	4e cc ff ccc	F c
.	.	.	.	.	.	.
.	.	12ree	.	.	.	.
.	.	.	.	.	.	.
.	.	12ree	.	.	.	.
.	.	.	.	.	.	.
6FF	4re	12Ree/	4r	.	4r	.
.	.	.	.	.	.	.
.	.	12ree	.	.	.	.
.	.	.	.	.	.	.
12r	.	12ree	.	.	.	.
.	.	.	.	.	.	.
4r	4re	12Ree/	4A	.	4e cc ff ccc	.
.	.	.	.	.	.	.
.	.	12ree	.	.	.	.
.	.	.	.	.	.	.
.	.	12ree	.	.	.	.
.	.	.	.	.	.	.
4AA	4re	12Ree/	4A	.	4e f cc	.
.	.	.	.	.	.	.
.	.	12ree	.	.	.	.
.	.	.	.	.	.	.
.	.	12ree	.	.	.	.
.	.	.	.	.	.	.
=124	=124	=124	=124	=124	=124	=124
*	*head:regular	*head:x	*	*	*	*
4C	4re	12Ree/	6E A	1ryy	6c f#	F+ W
.	.	.	.	.	.	.
.	.	12ree	.	.	.	.
.	.	.	.	.	.	.
.	.	12ree	12r	.	12r	.
.	.	.	.	.	.	.
4FF#	4re	12Ree/	4r	.	4r	.
.	.	.	.	.	.	.
.	.	12ree	.	.	.	.
.	.	.	.	.	.	.
.	.	12ree	.	.	.	.
.	.	.	.	.	.	.
4FF#	4re	12Ree/	4r	.	4r	B 7
.	.	.	.	.	.	.
.	.	12ree	.	.	.	.
.	.	.	.	.	.	.
.	.	12ree	.	.	.	.
.	.	.	.	.	.	.
4BB	4re	16Ree/	4r	.	4r	.
.	.	16ree	.	.	.	.
.	.	.	.	.	.	.
.	.	8ree	.	.	.	.
.	.	.	.	.	.	.
.	.	.	.	.	.	.
=125	=125	=125	=125	=125	=125	=125
*	*head:regular	*head:x	*	*	*	*
4BBB	4re	12Ree/	4r	1ryy	4r	E b
.	.	.	.	.	.	.
.	.	12ree	.	.	.	.
.	.	.	.	.	.	.
.	.	12ree	.	.	.	.
.	.	.	.	.	.	.
4AAA#	4re	12Ree/	4r	.	4r	.
.	.	.	.	.	.	.
.	.	12ree	.	.	.	.
.	.	.	.	.	.	.
.	.	12ree	.	.	.	.
.	.	.	.	.	.	.
4AAA	4re	12Ree/	4C# G A	.	4e	A 7
.	.	.	.	.	.	.
.	.	12ree	.	.	.	.
.	.	.	.	.	.	.
.	.	12ree	.	.	.	.
.	.	.	.	.	.	.
6DD	4re	16Ree/	4r	.	4r	.
.	.	16ree	.	.	.	.
.	.	.	.	.	.	.
.	.	8ree	.	.	.	.
12r	.	.	.	.	.	.
.	.	.	.	.	.	.
=126	=126	=126	=126	=126	=126	=126
*	*head:regular	*head:x	*	*	*	*
4DD	4re	12Ree/	4r	1ryy	4r	D b
.	.	.	.	.	.	.
.	.	12ree	.	.	.	.
.	.	.	.	.	.	.
.	.	12ree	.	.	.	.
.	.	.	.	.	.	.
4AAA	4re	12Ree/	4r	.	4r	.
.	.	.	.	.	.	.
.	.	12ree	.	.	.	.
.	.	.	.	.	.	.
.	.	12ree	.	.	.	.
.	.	.	.	.	.	.
4GGG	4re	12Ree/	6F B	.	6d g	G 7
.	.	.	.	.	.	.
.	.	12ree	.	.	.	.
.	.	.	.	.	.	.
.	.	12ree	12r	.	12r	.
.	.	.	.	.	.	.
8DD	4re	16Ree/	4r	.	4r	.
.	.	16ree	.	.	.	.
.	.	.	.	.	.	.
8r	.	8ree	.	.	.	.
.	.	.	.	.	.	.
.	.	.	.	.	.	.
=127	=127	=127	=127	=127	=127	=127
*	*head:regular	*head:x	*	*	*	*
8.CC	4re	12Ree/	4r	1ryy	4r	C 6
.	.	.	.	.	.	.
.	.	12ree	.	.	.	.
.	.	.	.	.	.	.
.	.	12ree	.	.	.	.
16r	.	.	.	.	.	.
4DD#	4re	12Ree/	4r	.	4r	.
.	.	.	.	.	.	.
.	.	12ree	.	.	.	.
.	.	.	.	.	.	.
.	.	12ree	.	.	.	.
.	.	.	.	.	.	.
4EE	4re	12Ree/	4E	.	4c g a cc	.
.	.	.	.	.	.	.
.	.	12ree	.	.	.	.
.	.	.	.	.	.	.
.	.	12ree	.	.	.	.
.	.	.	.	.	.	.
4GG	4re	12Ree/	4r	.	4r	.
.	.	.	.	.	.	.
.	.	12ree	.	.	.	.
.	.	.	.	.	.	.
.	.	12ree	.	.	.	.
.	.	.	.	.	.	.
==	==	==	==	==	==	==
*-	*-	*-	*-	*-	*-	*-
!!!system-decoration: {(s1,s2)}s3,s4e